; generated by PrusaSlicer 2.3.3+win64 on 2021-08-23 at 20:14:07 UTC


;
;

;
;
; 

; external perimeters extrusion width = 0.45mm
; perimeters extrusion width = 0.45mm
; infill extrusion width = 0.45mm
; solid infill extrusion width = 0.45mm
; top infill extrusion width = 0.40mm
; first layer extrusion width = 0.42mm

M73 P0 R151
M201 X1250 Y1250 Z400 E5000 ; sets maximum accelerations, mm/sec^2
M203 X180 Y180 Z12 E80 ; sets maximum feedrates, mm/sec
M204 P1250 R1250 T1250 ; sets acceleration (P, T) and retract acceleration (R), mm/sec^2
M205 X8.00 Y8.00 Z2.00 E10.00 ; sets the jerk limits, mm/sec
M205 S0 T0 ; sets the minimum extruding and travel feed rate, mm/sec
M107
;TYPE:Custom
G90 ; use absolute coordinates
M83 ; extruder relative mode
M104 S170 ; set extruder temp for bed leveling
M140 S50 ; set bed temp
M109 R170 ; wait for bed leveling temp
M190 S50 ; wait for bed temp
G28 ; home all without mesh bed level
G29 ; mesh bed leveling 
M104 S215 ; set extruder temp
G92 E0.0
G1 Y-2.0 X179 F2400
G1 Z3 F720
M109 S215 ; wait for extruder temp

; intro line
G1 X170 F1000
G1 Z0.2 F720
G1 X110.0 E8.0 F900
G1 X40.0 E10.0 F700
G92 E0.0

M221 S95 ; set flow
G21 ; set units to millimeters
G90 ; use absolute coordinates
M83 ; use relative distances for extrusion
M900 K0.2 ; Filament gcode LA 1.5
; ; Filament gcode LA 1.0
;LAYER_CHANGE
;Z:0.2
;HEIGHT:0.2
;BEFORE_LAYER_CHANGE
G92 E0.0
;0.2


G1 E-3.20000 F4200.000
G1 Z0.200 F9000.000
;AFTER_LAYER_CHANGE
;0.2
G1 Z0.400
G1 X28.303 Y28.336
G1 Z0.200
G1 E3.20000 F2400.000
M204 S800
;TYPE:Skirt
;WIDTH:0.42
G1 F1200.000
G1 X29.072 Y27.812 E0.02919
G1 X29.987 Y27.623 E0.02931
G1 X150.004 Y27.623 E3.76303
G1 X150.906 Y27.802 E0.02884
G1 X151.670 Y28.308 E0.02872
G1 X152.187 Y29.069 E0.02884
G1 X152.377 Y29.968 E0.02884
G1 X152.377 Y150.011 E3.76386
G1 X152.198 Y150.906 E0.02860
G1 X151.697 Y151.664 E0.02849
G1 X150.921 Y152.191 E0.02942
G1 X150.000 Y152.377 E0.02946
G1 X29.989 Y152.377 E3.76287
M73 P0 R150
G1 X29.094 Y152.198 E0.02860
G1 X28.336 Y151.697 E0.02849
G1 X27.809 Y150.921 E0.02942
G1 X27.623 Y150.000 E0.02946
G1 X27.623 Y29.989 E3.76287
G1 X27.802 Y29.094 E0.02860
G1 X28.270 Y28.386 E0.02661
M204 S1250
; printing object backPanel.stl id:0 copy 0
G1 E-2.24000 F4200.000
;WIPE_START
G1 F7200.000
G1 X29.072 Y27.812 E-0.54681
G1 X29.717 Y27.679 E-0.36519
;WIPE_END
G1 E-0.04800 F4200.000
G1 Z0.400 F9000.000
G1 X76.668 Y77.481
G1 Z0.200
G1 E3.20000 F2400.000
M204 S800
;TYPE:Perimeter
G1 F1200.000
G1 X78.342 Y75.908 E0.07201
G1 X80.200 Y74.558 E0.07201
G1 X82.213 Y73.452 E0.07201
G1 X84.349 Y72.606 E0.07201
G1 X86.573 Y72.035 E0.07201
G1 X88.852 Y71.747 E0.07201
G1 X91.148 Y71.747 E0.07201
G1 X93.427 Y72.035 E0.07201
G1 X95.651 Y72.606 E0.07201
G1 X97.787 Y73.452 E0.07201
G1 X99.800 Y74.558 E0.07201
G1 X101.658 Y75.908 E0.07201
G1 X103.332 Y77.481 E0.07201
G1 X104.796 Y79.250 E0.07201
G1 X106.026 Y81.189 E0.07201
G1 X107.004 Y83.268 E0.07201
G1 X107.714 Y85.453 E0.07205
G1 X108.150 Y87.795 E0.07468
G1 X108.289 Y90.000 E0.06928
G1 X108.144 Y92.292 E0.07201
G1 X107.714 Y94.548 E0.07201
G1 X107.004 Y96.732 E0.07201
G1 X106.026 Y98.811 E0.07201
G1 X104.796 Y100.750 E0.07201
G1 X103.332 Y102.519 E0.07201
G1 X101.658 Y104.092 E0.07201
G1 X99.800 Y105.442 E0.07201
G1 X97.787 Y106.548 E0.07201
G1 X95.651 Y107.394 E0.07201
G1 X93.427 Y107.965 E0.07201
G1 X91.148 Y108.253 E0.07201
G1 X88.852 Y108.253 E0.07201
G1 X86.573 Y107.965 E0.07201
G1 X84.349 Y107.394 E0.07201
G1 X82.213 Y106.548 E0.07201
G1 X80.277 Y105.484 E0.06928
G1 X78.343 Y104.093 E0.07468
G1 X76.668 Y102.519 E0.07205
G1 X75.204 Y100.750 E0.07201
G1 X73.974 Y98.811 E0.07201
G1 X72.996 Y96.732 E0.07201
G1 X72.286 Y94.547 E0.07205
G1 X71.850 Y92.205 E0.07468
G1 X71.711 Y90.000 E0.06928
G1 X71.856 Y87.708 E0.07201
G1 X72.286 Y85.452 E0.07201
G1 X72.996 Y83.268 E0.07201
G1 X73.974 Y81.189 E0.07201
G1 X75.204 Y79.250 E0.07201
G1 X76.630 Y77.527 E0.07013
M204 S1250
G1 X76.920 Y77.767 F9000.000
M204 S800
;TYPE:External perimeter
G1 F1200.000
G1 X78.583 Y76.199 E0.07165
G1 X80.403 Y74.877 E0.07052
G1 X82.374 Y73.794 E0.07052
G1 X84.465 Y72.966 E0.07052
G1 X86.644 Y72.406 E0.07052
G1 X88.875 Y72.125 E0.07052
G1 X91.125 Y72.125 E0.07052
G1 X93.356 Y72.406 E0.07052
G1 X95.535 Y72.966 E0.07052
G1 X97.626 Y73.794 E0.07052
G1 X98.034 Y74.018 E0.01459
G1 X99.597 Y74.877 E0.05593
G1 X101.417 Y76.199 E0.07052
G1 X103.056 Y77.739 E0.07052
G1 X104.490 Y79.472 E0.07052
G1 X105.695 Y81.371 E0.07052
G1 X106.653 Y83.407 E0.07052
G1 X107.348 Y85.546 E0.07054
G1 X107.775 Y87.841 E0.07319
G1 X107.911 Y90.000 E0.06782
G1 X107.770 Y92.245 E0.07052
G1 X107.348 Y94.454 E0.07052
G1 X106.653 Y96.593 E0.07052
G1 X105.695 Y98.629 E0.07052
G1 X104.490 Y100.528 E0.07052
G1 X103.056 Y102.261 E0.07052
G1 X101.417 Y103.801 E0.07052
G1 X99.597 Y105.123 E0.07052
G1 X97.626 Y106.206 E0.07052
G1 X95.535 Y107.034 E0.07052
G1 X93.356 Y107.594 E0.07052
G1 X91.125 Y107.875 E0.07052
G1 X88.875 Y107.875 E0.07052
G1 X86.644 Y107.594 E0.07052
G1 X84.465 Y107.034 E0.07052
G1 X82.374 Y106.206 E0.07052
G1 X80.479 Y105.164 E0.06782
G1 X78.584 Y103.801 E0.07319
G1 X76.944 Y102.261 E0.07054
G1 X75.510 Y100.528 E0.07052
G1 X74.305 Y98.629 E0.07052
G1 X73.347 Y96.593 E0.07052
G1 X72.652 Y94.454 E0.07054
G1 X72.225 Y92.159 E0.07319
G1 X72.089 Y90.000 E0.06782
G1 X72.230 Y87.755 E0.07052
G1 X72.652 Y85.546 E0.07052
G1 X73.347 Y83.407 E0.07052
G1 X74.305 Y81.371 E0.07052
G1 X75.510 Y79.472 E0.07052
G1 X76.882 Y77.813 E0.06751
M204 S1250
G1 X76.804 Y77.384 F9000.000
G1 E-2.24000 F4200.000
;WIPE_START
G1 F7200.000
G1 X78.076 Y76.681 E-0.91200
;WIPE_END
G1 E-0.04800 F4200.000
G1 Z0.400 F9000.000
G1 X30.787 Y30.787
G1 Z0.200
G1 E3.20000 F2400.000
M204 S800
;TYPE:Perimeter
G1 F1200.000
G1 X149.213 Y30.787 E3.71316
G1 X149.213 Y149.213 E3.71316
G1 X30.787 Y149.213 E3.71316
G1 X30.787 Y30.847 E3.71128
M204 S1250
G1 X30.410 Y30.410 F9000.000
M204 S800
;TYPE:External perimeter
G1 F1200.000
G1 X149.590 Y30.410 E3.73681
G1 X149.590 Y149.590 E3.73681
G1 X30.410 Y149.590 E3.73681
M73 P1 R149
G1 X30.410 Y30.470 E3.73492
M204 S1250
G1 X30.796 Y30.514 F9000.000
G1 E-2.24000 F4200.000
;WIPE_START
G1 F7200.000
G1 X32.056 Y30.469 E-0.91200
;WIPE_END
G1 E-0.04800 F4200.000
G1 Z0.400 F9000.000
G1 X148.337 Y30.900
G1 Z0.200
G1 E3.20000 F2400.000
M204 S800
;TYPE:Solid infill
;WIDTH:0.420375
G1 F1200.000
G1 X148.930 Y31.494 E0.02634
G1 X148.930 Y32.027 E0.01675
G1 X147.973 Y31.070 E0.04250
G1 X147.439 Y31.070 E0.01675
G1 X148.930 Y32.561 E0.06619
G1 X148.930 Y33.095 E0.01675
G1 X146.905 Y31.070 E0.08989
G1 X146.371 Y31.070 E0.01675
G1 X148.930 Y33.629 E0.11358
G1 X148.930 Y34.163 E0.01675
G1 X145.837 Y31.070 E0.13727
G1 X145.304 Y31.070 E0.01675
G1 X148.930 Y34.696 E0.16097
G1 X148.930 Y35.230 E0.01675
G1 X144.770 Y31.070 E0.18466
G1 X144.236 Y31.070 E0.01675
G1 X148.930 Y35.764 E0.20835
G1 X148.930 Y36.298 E0.01675
G1 X143.702 Y31.070 E0.23205
G1 X143.168 Y31.070 E0.01675
G1 X148.930 Y36.832 E0.25574
G1 X148.930 Y37.365 E0.01675
G1 X142.635 Y31.070 E0.27943
G1 X142.101 Y31.070 E0.01675
G1 X148.930 Y37.899 E0.30312
G1 X148.930 Y38.433 E0.01675
G1 X141.567 Y31.070 E0.32682
G1 X141.033 Y31.070 E0.01675
G1 X148.930 Y38.967 E0.35051
G1 X148.930 Y39.501 E0.01675
G1 X140.499 Y31.070 E0.37420
G1 X139.966 Y31.070 E0.01675
G1 X148.930 Y40.034 E0.39790
G1 X148.930 Y40.568 E0.01675
G1 X139.432 Y31.070 E0.42159
G1 X138.898 Y31.070 E0.01675
G1 X148.930 Y41.102 E0.44528
G1 X148.930 Y41.636 E0.01675
G1 X138.364 Y31.070 E0.46898
G1 X137.830 Y31.070 E0.01675
G1 X148.930 Y42.170 E0.49267
G1 X148.930 Y42.703 E0.01675
G1 X137.297 Y31.070 E0.51636
G1 X136.763 Y31.070 E0.01675
G1 X148.930 Y43.237 E0.54006
G1 X148.930 Y43.771 E0.01675
G1 X136.229 Y31.070 E0.56375
G1 X135.695 Y31.070 E0.01675
G1 X148.930 Y44.305 E0.58744
G1 X148.930 Y44.839 E0.01675
G1 X135.161 Y31.070 E0.61114
G1 X134.628 Y31.070 E0.01675
G1 X148.930 Y45.372 E0.63483
G1 X148.930 Y45.906 E0.01675
G1 X134.094 Y31.070 E0.65852
G1 X133.560 Y31.070 E0.01675
G1 X148.930 Y46.440 E0.68222
G1 X148.930 Y46.974 E0.01675
G1 X133.026 Y31.070 E0.70591
G1 X132.492 Y31.070 E0.01675
G1 X148.930 Y47.508 E0.72960
G1 X148.930 Y48.041 E0.01675
G1 X131.959 Y31.070 E0.75330
G1 X131.425 Y31.070 E0.01675
G1 X148.930 Y48.575 E0.77699
G1 X148.930 Y49.109 E0.01675
G1 X130.891 Y31.070 E0.80068
G1 X130.357 Y31.070 E0.01675
G1 X148.930 Y49.643 E0.82438
G1 X148.930 Y50.177 E0.01675
G1 X129.823 Y31.070 E0.84807
G1 X129.290 Y31.070 E0.01675
G1 X148.930 Y50.710 E0.87176
G1 X148.930 Y51.244 E0.01675
G1 X128.756 Y31.070 E0.89546
G1 X128.222 Y31.070 E0.01675
G1 X148.930 Y51.778 E0.91915
G1 X148.930 Y52.312 E0.01675
G1 X127.688 Y31.070 E0.94284
G1 X127.154 Y31.070 E0.01675
G1 X148.930 Y52.846 E0.96654
G1 X148.930 Y53.379 E0.01675
G1 X126.621 Y31.070 E0.99023
G1 X126.087 Y31.070 E0.01675
G1 X148.930 Y53.913 E1.01392
G1 X148.930 Y54.447 E0.01675
G1 X125.553 Y31.070 E1.03762
G1 X125.019 Y31.070 E0.01675
G1 X148.930 Y54.981 E1.06131
G1 X148.930 Y55.515 E0.01675
G1 X124.485 Y31.070 E1.08500
G1 X123.952 Y31.070 E0.01675
G1 X148.930 Y56.048 E1.10869
G1 X148.930 Y56.582 E0.01675
G1 X123.418 Y31.070 E1.13239
G1 X122.884 Y31.070 E0.01675
G1 X148.930 Y57.116 E1.15608
G1 X148.930 Y57.650 E0.01675
M73 P1 R148
G1 X122.350 Y31.070 E1.17977
G1 X121.816 Y31.070 E0.01675
G1 X148.930 Y58.184 E1.20347
G1 X148.930 Y58.717 E0.01675
G1 X121.283 Y31.070 E1.22716
G1 X120.749 Y31.070 E0.01675
G1 X148.930 Y59.251 E1.25085
G1 X148.930 Y59.785 E0.01675
G1 X120.215 Y31.070 E1.27455
G1 X119.681 Y31.070 E0.01675
G1 X148.930 Y60.319 E1.29824
G1 X148.930 Y60.853 E0.01675
G1 X119.147 Y31.070 E1.32193
G1 X118.614 Y31.070 E0.01675
G1 X148.930 Y61.386 E1.34563
G1 X148.930 Y61.920 E0.01675
G1 X118.080 Y31.070 E1.36932
G1 X117.546 Y31.070 E0.01675
G1 X148.930 Y62.454 E1.39301
G1 X148.930 Y62.988 E0.01675
G1 X117.012 Y31.070 E1.41671
G1 X116.478 Y31.070 E0.01675
G1 X148.930 Y63.522 E1.44040
G1 X148.930 Y64.055 E0.01675
G1 X115.945 Y31.070 E1.46409
G1 X115.411 Y31.070 E0.01675
G1 X148.930 Y64.589 E1.48779
G1 X148.930 Y65.123 E0.01675
G1 X114.877 Y31.070 E1.51148
M73 P2 R148
G1 X114.343 Y31.070 E0.01675
G1 X148.930 Y65.657 E1.53517
G1 X148.930 Y66.191 E0.01675
G1 X113.809 Y31.070 E1.55887
G1 X113.275 Y31.070 E0.01675
G1 X148.930 Y66.725 E1.58256
G1 X148.930 Y67.258 E0.01675
G1 X112.742 Y31.070 E1.60625
G1 X112.208 Y31.070 E0.01675
G1 X148.930 Y67.792 E1.62995
G1 X148.930 Y68.326 E0.01675
G1 X111.674 Y31.070 E1.65364
G1 X111.140 Y31.070 E0.01675
G1 X148.930 Y68.860 E1.67733
G1 X148.930 Y69.394 E0.01675
G1 X110.606 Y31.070 E1.70103
G1 X110.073 Y31.070 E0.01675
G1 X148.930 Y69.927 E1.72472
G1 X148.930 Y70.461 E0.01675
G1 X109.539 Y31.070 E1.74841
G1 X109.005 Y31.070 E0.01675
G1 X148.930 Y70.995 E1.77211
M73 P2 R147
G1 X148.930 Y71.529 E0.01675
G1 X108.471 Y31.070 E1.79580
G1 X107.937 Y31.070 E0.01675
G1 X148.930 Y72.063 E1.81949
G1 X148.930 Y72.596 E0.01675
G1 X107.404 Y31.070 E1.84319
G1 X106.870 Y31.070 E0.01675
G1 X148.930 Y73.130 E1.86688
G1 X148.930 Y73.664 E0.01675
G1 X106.336 Y31.070 E1.89057
G1 X105.802 Y31.070 E0.01675
G1 X148.930 Y74.198 E1.91427
G1 X148.930 Y74.732 E0.01675
G1 X105.268 Y31.070 E1.93796
G1 X104.735 Y31.070 E0.01675
G1 X148.930 Y75.265 E1.96165
G1 X148.930 Y75.799 E0.01675
G1 X104.201 Y31.070 E1.98534
G1 X103.667 Y31.070 E0.01675
G1 X148.930 Y76.333 E2.00904
G1 X148.930 Y76.867 E0.01675
G1 X103.133 Y31.070 E2.03273
G1 X102.599 Y31.070 E0.01675
G1 X148.930 Y77.401 E2.05642
G1 X148.930 Y77.934 E0.01675
G1 X102.066 Y31.070 E2.08012
G1 X101.532 Y31.070 E0.01675
G1 X148.930 Y78.468 E2.10381
G1 X148.930 Y79.002 E0.01675
G1 X100.998 Y31.070 E2.12750
G1 X100.464 Y31.070 E0.01675
G1 X148.930 Y79.536 E2.15120
G1 X148.930 Y80.070 E0.01675
G1 X99.930 Y31.070 E2.17489
G1 X99.397 Y31.070 E0.01675
G1 X148.930 Y80.603 E2.19858
M73 P2 R146
G1 X148.930 Y81.137 E0.01675
G1 X98.863 Y31.070 E2.22228
M73 P3 R146
G1 X98.329 Y31.070 E0.01675
G1 X148.930 Y81.671 E2.24597
G1 X148.930 Y82.205 E0.01675
G1 X97.795 Y31.070 E2.26966
G1 X97.261 Y31.070 E0.01675
G1 X148.930 Y82.739 E2.29336
G1 X148.930 Y83.272 E0.01675
G1 X96.728 Y31.070 E2.31705
G1 X96.194 Y31.070 E0.01675
G1 X148.930 Y83.806 E2.34074
G1 X148.930 Y84.340 E0.01675
G1 X95.660 Y31.070 E2.36444
G1 X95.126 Y31.070 E0.01675
G1 X148.930 Y84.874 E2.38813
G1 X148.930 Y85.408 E0.01675
G1 X94.592 Y31.070 E2.41182
G1 X94.059 Y31.070 E0.01675
G1 X148.930 Y85.941 E2.43552
G1 X148.930 Y86.475 E0.01675
G1 X93.525 Y31.070 E2.45921
G1 X92.991 Y31.070 E0.01675
G1 X148.930 Y87.009 E2.48290
G1 X148.930 Y87.543 E0.01675
G1 X92.457 Y31.070 E2.50660
G1 X91.923 Y31.070 E0.01675
G1 X148.930 Y88.077 E2.53029
G1 X148.930 Y88.610 E0.01675
G1 X91.390 Y31.070 E2.55398
G1 X90.856 Y31.070 E0.01675
G1 X148.930 Y89.144 E2.57768
M73 P3 R145
G1 X148.930 Y89.678 E0.01675
G1 X90.322 Y31.070 E2.60137
G1 X89.788 Y31.070 E0.01675
G1 X148.930 Y90.212 E2.62506
G1 X148.930 Y90.746 E0.01675
G1 X89.254 Y31.070 E2.64876
G1 X88.721 Y31.070 E0.01675
G1 X148.930 Y91.279 E2.67245
G1 X148.930 Y91.813 E0.01675
G1 X88.187 Y31.070 E2.69614
G1 X87.653 Y31.070 E0.01675
G1 X148.930 Y92.347 E2.71984
G1 X148.930 Y92.881 E0.01675
G1 X87.119 Y31.070 E2.74353
M73 P4 R145
G1 X86.585 Y31.070 E0.01675
G1 X148.930 Y93.415 E2.76722
G1 X148.930 Y93.948 E0.01675
G1 X86.052 Y31.070 E2.79091
G1 X85.518 Y31.070 E0.01675
G1 X148.930 Y94.482 E2.81461
G1 X148.930 Y95.016 E0.01675
G1 X84.984 Y31.070 E2.83830
G1 X84.450 Y31.070 E0.01675
G1 X148.930 Y95.550 E2.86199
G1 X148.930 Y96.084 E0.01675
G1 X83.916 Y31.070 E2.88569
G1 X83.383 Y31.070 E0.01675
G1 X148.930 Y96.617 E2.90938
M73 P4 R144
G1 X148.930 Y97.151 E0.01675
G1 X82.849 Y31.070 E2.93307
G1 X82.315 Y31.070 E0.01675
G1 X148.930 Y97.685 E2.95677
G1 X148.930 Y98.219 E0.01675
G1 X81.781 Y31.070 E2.98046
G1 X81.247 Y31.070 E0.01675
G1 X148.930 Y98.753 E3.00415
G1 X148.930 Y99.286 E0.01675
G1 X80.714 Y31.070 E3.02785
G1 X80.180 Y31.070 E0.01675
G1 X148.930 Y99.820 E3.05154
G1 X148.930 Y100.354 E0.01675
G1 X79.646 Y31.070 E3.07523
G1 X79.112 Y31.070 E0.01675
G1 X148.930 Y100.888 E3.09893
G1 X148.930 Y101.422 E0.01675
G1 X78.578 Y31.070 E3.12262
G1 X78.045 Y31.070 E0.01675
G1 X148.930 Y101.955 E3.14631
G1 X148.930 Y102.489 E0.01675
G1 X77.511 Y31.070 E3.17001
G1 X76.977 Y31.070 E0.01675
G1 X148.930 Y103.023 E3.19370
M73 P5 R143
G1 X148.930 Y103.557 E0.01675
G1 X76.443 Y31.070 E3.21739
G1 X75.909 Y31.070 E0.01675
G1 X148.930 Y104.091 E3.24109
G1 X148.930 Y104.624 E0.01675
G1 X75.376 Y31.070 E3.26478
G1 X74.842 Y31.070 E0.01675
G1 X148.930 Y105.158 E3.28847
G1 X148.930 Y105.692 E0.01675
G1 X74.308 Y31.070 E3.31217
G1 X73.774 Y31.070 E0.01675
G1 X148.930 Y106.226 E3.33586
G1 X148.930 Y106.760 E0.01675
G1 X73.240 Y31.070 E3.35955
G1 X72.707 Y31.070 E0.01675
G1 X148.930 Y107.293 E3.38325
G1 X148.930 Y107.827 E0.01675
G1 X72.173 Y31.070 E3.40694
G1 X71.639 Y31.070 E0.01675
G1 X148.930 Y108.361 E3.43063
G1 X148.930 Y108.895 E0.01675
G1 X71.105 Y31.070 E3.45433
M73 P5 R142
G1 X70.571 Y31.070 E0.01675
G1 X148.930 Y109.429 E3.47802
G1 X148.930 Y109.962 E0.01675
G1 X70.038 Y31.070 E3.50171
G1 X69.504 Y31.070 E0.01675
G1 X148.930 Y110.496 E3.52541
G1 X148.930 Y111.030 E0.01675
G1 X68.970 Y31.070 E3.54910
G1 X68.436 Y31.070 E0.01675
G1 X148.930 Y111.564 E3.57279
G1 X148.930 Y112.098 E0.01675
G1 X67.902 Y31.070 E3.59648
M73 P6 R142
G1 X67.369 Y31.070 E0.01675
G1 X148.930 Y112.631 E3.62018
G1 X148.930 Y113.165 E0.01675
G1 X66.835 Y31.070 E3.64387
G1 X66.301 Y31.070 E0.01675
G1 X148.930 Y113.699 E3.66756
G1 X148.930 Y114.233 E0.01675
G1 X65.767 Y31.070 E3.69126
G1 X65.233 Y31.070 E0.01675
G1 X148.930 Y114.767 E3.71495
M73 P6 R141
G1 X148.930 Y115.300 E0.01675
G1 X64.700 Y31.070 E3.73864
G1 X64.166 Y31.070 E0.01675
G1 X148.930 Y115.834 E3.76234
G1 X148.930 Y116.368 E0.01675
G1 X63.632 Y31.070 E3.78603
G1 X63.098 Y31.070 E0.01675
G1 X148.930 Y116.902 E3.80972
G1 X148.930 Y117.436 E0.01675
G1 X62.564 Y31.070 E3.83342
G1 X62.031 Y31.070 E0.01675
G1 X148.930 Y117.969 E3.85711
G1 X148.930 Y118.503 E0.01675
G1 X61.497 Y31.070 E3.88080
G1 X60.963 Y31.070 E0.01675
G1 X148.930 Y119.037 E3.90450
