; generated by PrusaSlicer 2.3.3+win64 on 2021-08-22 at 02:46:25 UTC


;
;

;
;
; 

; external perimeters extrusion width = 0.45mm
; perimeters extrusion width = 0.45mm
; infill extrusion width = 0.45mm
; solid infill extrusion width = 0.45mm
; top infill extrusion width = 0.40mm
; first layer extrusion width = 0.42mm

M73 P0 R151
M201 X1250 Y1250 Z400 E5000 ; sets maximum accelerations, mm/sec^2
M203 X180 Y180 Z12 E80 ; sets maximum feedrates, mm/sec
M204 P1250 R1250 T1250 ; sets acceleration (P, T) and retract acceleration (R), mm/sec^2
M205 X8.00 Y8.00 Z2.00 E10.00 ; sets the jerk limits, mm/sec
M205 S0 T0 ; sets the minimum extruding and travel feed rate, mm/sec
M107
;TYPE:Custom
G90 ; use absolute coordinates
M83 ; extruder relative mode
M104 S170 ; set extruder temp for bed leveling
M140 S60 ; set bed temp
M109 R170 ; wait for bed leveling temp
M190 S60 ; wait for bed temp
G28 ; home all without mesh bed level
G29 ; mesh bed leveling 
M104 S215 ; set extruder temp
G92 E0.0
G1 Y-2.0 X179 F2400
G1 Z3 F720
M109 S215 ; wait for extruder temp

; intro line
G1 X170 F1000
G1 Z0.2 F720
G1 X110.0 E8.0 F900
M73 P0 R150
G1 X40.0 E10.0 F700
G92 E0.0

M221 S95 ; set flow
G21 ; set units to millimeters
G90 ; use absolute coordinates
M83 ; use relative distances for extrusion
M900 K0.2 ; Filament gcode LA 1.5
; ; Filament gcode LA 1.0
;LAYER_CHANGE
;Z:0.2
;HEIGHT:0.2
;BEFORE_LAYER_CHANGE
G92 E0.0
;0.2


G1 E-3.20000 F4200.000
G1 Z0.200 F9000.000
;AFTER_LAYER_CHANGE
;0.2
G1 Z0.400
G1 X28.303 Y28.336
G1 Z0.200
G1 E3.20000 F2400.000
M204 S800
;TYPE:Skirt
;WIDTH:0.42
G1 F1200.000
G1 X29.072 Y27.812 E0.02919
G1 X29.987 Y27.623 E0.02931
G1 X150.004 Y27.623 E3.76303
G1 X150.906 Y27.802 E0.02884
G1 X151.670 Y28.308 E0.02872
G1 X152.187 Y29.069 E0.02884
G1 X152.377 Y29.968 E0.02884
G1 X152.377 Y150.011 E3.76386
G1 X152.198 Y150.906 E0.02860
G1 X151.697 Y151.664 E0.02849
G1 X150.921 Y152.191 E0.02942
G1 X150.000 Y152.377 E0.02946
G1 X29.989 Y152.377 E3.76287
G1 X29.094 Y152.198 E0.02860
G1 X28.336 Y151.697 E0.02849
G1 X27.809 Y150.921 E0.02942
G1 X27.623 Y150.000 E0.02946
G1 X27.623 Y29.989 E3.76287
G1 X27.802 Y29.094 E0.02860
G1 X28.270 Y28.386 E0.02661
M204 S1250
; printing object backPanel.stl id:0 copy 0
G1 E-2.24000 F4200.000
;WIPE_START
G1 F7200.000
G1 X29.072 Y27.812 E-0.54681
G1 X29.717 Y27.679 E-0.36519
;WIPE_END
G1 E-0.04800 F4200.000
G1 Z0.400 F9000.000
G1 X77.426 Y76.035
G1 Z0.200
G1 E3.20000 F2400.000
M204 S800
;TYPE:Perimeter
G1 F1200.000
G1 X80.604 Y73.726 E0.12317
G1 X84.193 Y72.128 E0.12317
G1 X88.036 Y71.312 E0.12317
G1 X91.964 Y71.312 E0.12317
G1 X95.807 Y72.128 E0.12317
G1 X99.396 Y73.726 E0.12317
G1 X102.574 Y76.035 E0.12317
G1 X105.203 Y78.955 E0.12317
G1 X107.167 Y82.357 E0.12317
G1 X108.381 Y86.093 E0.12317
G1 X108.791 Y90.000 E0.12317
G1 X108.381 Y93.907 E0.12317
G1 X107.167 Y97.643 E0.12317
G1 X105.203 Y101.045 E0.12317
G1 X102.574 Y103.965 E0.12317
G1 X99.396 Y106.274 E0.12317
G1 X95.807 Y107.872 E0.12317
G1 X91.964 Y108.688 E0.12317
G1 X88.036 Y108.688 E0.12317
G1 X84.193 Y107.872 E0.12317
G1 X80.604 Y106.274 E0.12317
G1 X77.426 Y103.965 E0.12317
G1 X74.797 Y101.045 E0.12317
G1 X72.833 Y97.643 E0.12317
G1 X71.619 Y93.907 E0.12317
G1 X71.209 Y90.000 E0.12317
G1 X71.619 Y86.093 E0.12317
G1 X72.833 Y82.357 E0.12317
G1 X74.797 Y78.955 E0.12317
G1 X77.386 Y76.080 E0.12129
M204 S1250
G1 X77.666 Y76.332 F9000.000
M204 S800
;TYPE:External perimeter
G1 F1200.000
G1 X80.794 Y74.055 E0.12131
G1 X84.310 Y72.489 E0.12069
G1 X88.075 Y71.689 E0.12069
G1 X91.925 Y71.689 E0.12069
G1 X95.690 Y72.489 E0.12069
G1 X99.206 Y74.055 E0.12069
G1 X102.320 Y76.317 E0.12069
G1 X104.896 Y79.178 E0.12069
G1 X106.820 Y82.511 E0.12069
G1 X108.010 Y86.172 E0.12069
G1 X108.412 Y90.000 E0.12069
G1 X108.010 Y93.828 E0.12069
G1 X106.820 Y97.489 E0.12069
G1 X104.896 Y100.822 E0.12069
G1 X102.320 Y103.683 E0.12069
G1 X99.206 Y105.945 E0.12069
G1 X95.690 Y107.511 E0.12069
G1 X91.925 Y108.311 E0.12069
G1 X88.075 Y108.311 E0.12069
G1 X84.310 Y107.511 E0.12069
G1 X80.794 Y105.945 E0.12069
G1 X77.680 Y103.683 E0.12069
G1 X75.104 Y100.822 E0.12069
G1 X73.180 Y97.489 E0.12069
G1 X71.990 Y93.828 E0.12069
G1 X71.588 Y90.000 E0.12069
G1 X71.990 Y86.172 E0.12069
G1 X73.180 Y82.511 E0.12069
G1 X75.104 Y79.178 E0.12069
G1 X77.626 Y76.377 E0.11817
M204 S1250
G1 X77.583 Y75.941 F9000.000
G1 E-2.24000 F4200.000
;WIPE_START
G1 F7200.000
G1 X78.953 Y75.404 E-0.91200
;WIPE_END
G1 E-0.04800 F4200.000
G1 Z0.400 F9000.000
G1 X30.787 Y30.787
G1 Z0.200
G1 E3.20000 F2400.000
M204 S800
;TYPE:Perimeter
G1 F1200.000
G1 X149.213 Y30.787 E3.71316
G1 X149.213 Y149.213 E3.71316
G1 X30.787 Y149.213 E3.71316
M73 P0 R149
G1 X30.787 Y30.847 E3.71128
M204 S1250
G1 X30.410 Y30.410 F9000.000
M204 S800
;TYPE:External perimeter
G1 F1200.000
G1 X149.590 Y30.410 E3.73681
G1 X149.590 Y149.590 E3.73681
G1 X30.410 Y149.590 E3.73681
M73 P1 R149
G1 X30.410 Y30.470 E3.73492
M204 S1250
G1 X30.796 Y30.514 F9000.000
G1 E-2.24000 F4200.000
;WIPE_START
G1 F7200.000
G1 X32.056 Y30.469 E-0.91200
;WIPE_END
G1 E-0.04800 F4200.000
G1 Z0.400 F9000.000
G1 X149.100 Y31.663
G1 Z0.200
G1 E3.20000 F2400.000
M204 S800
;TYPE:Solid infill
;WIDTH:0.420375
G1 F1200.000
G1 X148.506 Y31.070 E0.02634
G1 X147.973 Y31.070 E0.01675
G1 X148.930 Y32.027 E0.04250
G1 X148.930 Y32.561 E0.01675
G1 X147.439 Y31.070 E0.06619
G1 X146.905 Y31.070 E0.01675
G1 X148.930 Y33.095 E0.08989
G1 X148.930 Y33.629 E0.01675
G1 X146.371 Y31.070 E0.11358
G1 X145.837 Y31.070 E0.01675
G1 X148.930 Y34.163 E0.13727
G1 X148.930 Y34.696 E0.01675
G1 X145.304 Y31.070 E0.16097
G1 X144.770 Y31.070 E0.01675
G1 X148.930 Y35.230 E0.18466
G1 X148.930 Y35.764 E0.01675
G1 X144.236 Y31.070 E0.20835
G1 X143.702 Y31.070 E0.01675
G1 X148.930 Y36.298 E0.23205
G1 X148.930 Y36.832 E0.01675
G1 X143.168 Y31.070 E0.25574
G1 X142.635 Y31.070 E0.01675
G1 X148.930 Y37.365 E0.27943
G1 X148.930 Y37.899 E0.01675
G1 X142.101 Y31.070 E0.30312
G1 X141.567 Y31.070 E0.01675
G1 X148.930 Y38.433 E0.32682
G1 X148.930 Y38.967 E0.01675
G1 X141.033 Y31.070 E0.35051
G1 X140.499 Y31.070 E0.01675
G1 X148.930 Y39.501 E0.37420
G1 X148.930 Y40.034 E0.01675
G1 X139.966 Y31.070 E0.39790
G1 X139.432 Y31.070 E0.01675
G1 X148.930 Y40.568 E0.42159
G1 X148.930 Y41.102 E0.01675
G1 X138.898 Y31.070 E0.44528
G1 X138.364 Y31.070 E0.01675
G1 X148.930 Y41.636 E0.46898
G1 X148.930 Y42.170 E0.01675
G1 X137.830 Y31.070 E0.49267
G1 X137.297 Y31.070 E0.01675
G1 X148.930 Y42.703 E0.51636
G1 X148.930 Y43.237 E0.01675
G1 X136.763 Y31.070 E0.54006
G1 X136.229 Y31.070 E0.01675
G1 X148.930 Y43.771 E0.56375
G1 X148.930 Y44.305 E0.01675
G1 X135.695 Y31.070 E0.58744
G1 X135.161 Y31.070 E0.01675
G1 X148.930 Y44.839 E0.61114
G1 X148.930 Y45.372 E0.01675
G1 X134.628 Y31.070 E0.63483
G1 X134.094 Y31.070 E0.01675
G1 X148.930 Y45.906 E0.65852
G1 X148.930 Y46.440 E0.01675
G1 X133.560 Y31.070 E0.68222
G1 X133.026 Y31.070 E0.01675
G1 X148.930 Y46.974 E0.70591
G1 X148.930 Y47.508 E0.01675
G1 X132.492 Y31.070 E0.72960
G1 X131.959 Y31.070 E0.01675
G1 X148.930 Y48.041 E0.75330
G1 X148.930 Y48.575 E0.01675
G1 X131.425 Y31.070 E0.77699
G1 X130.891 Y31.070 E0.01675
G1 X148.930 Y49.109 E0.80068
G1 X148.930 Y49.643 E0.01675
G1 X130.357 Y31.070 E0.82438
M73 P1 R148
G1 X129.823 Y31.070 E0.01675
G1 X148.930 Y50.177 E0.84807
G1 X148.930 Y50.710 E0.01675
G1 X129.290 Y31.070 E0.87176
G1 X128.756 Y31.070 E0.01675
G1 X148.930 Y51.244 E0.89546
G1 X148.930 Y51.778 E0.01675
G1 X128.222 Y31.070 E0.91915
G1 X127.688 Y31.070 E0.01675
G1 X148.930 Y52.312 E0.94284
G1 X148.930 Y52.846 E0.01675
G1 X127.154 Y31.070 E0.96654
G1 X126.621 Y31.070 E0.01675
G1 X148.930 Y53.379 E0.99023
G1 X148.930 Y53.913 E0.01675
G1 X126.087 Y31.070 E1.01392
G1 X125.553 Y31.070 E0.01675
G1 X148.930 Y54.447 E1.03762
G1 X148.930 Y54.981 E0.01675
G1 X125.019 Y31.070 E1.06131
G1 X124.485 Y31.070 E0.01675
G1 X148.930 Y55.515 E1.08500
G1 X148.930 Y56.048 E0.01675
G1 X123.952 Y31.070 E1.10869
G1 X123.418 Y31.070 E0.01675
G1 X148.930 Y56.582 E1.13239
G1 X148.930 Y57.116 E0.01675
G1 X122.884 Y31.070 E1.15608
G1 X122.350 Y31.070 E0.01675
G1 X148.930 Y57.650 E1.17977
G1 X148.930 Y58.184 E0.01675
G1 X121.816 Y31.070 E1.20347
G1 X121.283 Y31.070 E0.01675
G1 X148.930 Y58.717 E1.22716
G1 X148.930 Y59.251 E0.01675
G1 X120.749 Y31.070 E1.25085
G1 X120.215 Y31.070 E0.01675
G1 X148.930 Y59.785 E1.27455
G1 X148.930 Y60.319 E0.01675
G1 X119.681 Y31.070 E1.29824
G1 X119.147 Y31.070 E0.01675
G1 X148.930 Y60.853 E1.32193
G1 X148.930 Y61.386 E0.01675
G1 X118.614 Y31.070 E1.34563
G1 X118.080 Y31.070 E0.01675
G1 X148.930 Y61.920 E1.36932
G1 X148.930 Y62.454 E0.01675
G1 X117.546 Y31.070 E1.39301
G1 X117.012 Y31.070 E0.01675
G1 X148.930 Y62.988 E1.41671
G1 X148.930 Y63.522 E0.01675
G1 X116.478 Y31.070 E1.44040
G1 X115.945 Y31.070 E0.01675
G1 X148.930 Y64.055 E1.46409
G1 X148.930 Y64.589 E0.01675
G1 X115.411 Y31.070 E1.48779
M73 P2 R148
G1 X114.877 Y31.070 E0.01675
G1 X148.930 Y65.123 E1.51148
G1 X148.930 Y65.657 E0.01675
G1 X114.343 Y31.070 E1.53517
G1 X113.809 Y31.070 E0.01675
G1 X148.930 Y66.191 E1.55887
M73 P2 R147
G1 X148.930 Y66.725 E0.01675
G1 X113.275 Y31.070 E1.58256
G1 X112.742 Y31.070 E0.01675
G1 X148.930 Y67.258 E1.60625
G1 X148.930 Y67.792 E0.01675
G1 X112.208 Y31.070 E1.62995
G1 X111.674 Y31.070 E0.01675
G1 X148.930 Y68.326 E1.65364
G1 X148.930 Y68.860 E0.01675
G1 X111.140 Y31.070 E1.67733
G1 X110.606 Y31.070 E0.01675
G1 X148.930 Y69.394 E1.70103
G1 X148.930 Y69.927 E0.01675
G1 X110.073 Y31.070 E1.72472
G1 X109.539 Y31.070 E0.01675
G1 X148.930 Y70.461 E1.74841
G1 X148.930 Y70.995 E0.01675
G1 X109.005 Y31.070 E1.77211
G1 X108.471 Y31.070 E0.01675
G1 X148.930 Y71.529 E1.79580
G1 X148.930 Y72.063 E0.01675
G1 X107.937 Y31.070 E1.81949
G1 X107.404 Y31.070 E0.01675
G1 X148.930 Y72.596 E1.84319
G1 X148.930 Y73.130 E0.01675
G1 X106.870 Y31.070 E1.86688
G1 X106.336 Y31.070 E0.01675
G1 X148.930 Y73.664 E1.89057
G1 X148.930 Y74.198 E0.01675
G1 X105.802 Y31.070 E1.91427
G1 X105.268 Y31.070 E0.01675
G1 X148.930 Y74.732 E1.93796
G1 X148.930 Y75.265 E0.01675
G1 X104.735 Y31.070 E1.96165
G1 X104.201 Y31.070 E0.01675
G1 X148.930 Y75.799 E1.98534
G1 X148.930 Y76.333 E0.01675
G1 X103.667 Y31.070 E2.00904
G1 X103.133 Y31.070 E0.01675
G1 X148.930 Y76.867 E2.03273
G1 X148.930 Y77.401 E0.01675
G1 X102.599 Y31.070 E2.05642
M73 P2 R146
G1 X102.066 Y31.070 E0.01675
G1 X148.930 Y77.934 E2.08012
G1 X148.930 Y78.468 E0.01675
G1 X101.532 Y31.070 E2.10381
G1 X100.998 Y31.070 E0.01675
G1 X148.930 Y79.002 E2.12750
G1 X148.930 Y79.536 E0.01675
G1 X100.464 Y31.070 E2.15120
G1 X99.930 Y31.070 E0.01675
G1 X148.930 Y80.070 E2.17489
G1 X148.930 Y80.603 E0.01675
G1 X99.397 Y31.070 E2.19858
G1 X98.863 Y31.070 E0.01675
M73 P3 R146
G1 X148.930 Y81.137 E2.22228
G1 X148.930 Y81.671 E0.01675
G1 X98.329 Y31.070 E2.24597
G1 X97.795 Y31.070 E0.01675
G1 X148.930 Y82.205 E2.26966
G1 X148.930 Y82.739 E0.01675
G1 X97.261 Y31.070 E2.29336
G1 X96.728 Y31.070 E0.01675
G1 X148.930 Y83.272 E2.31705
G1 X148.930 Y83.806 E0.01675
G1 X96.194 Y31.070 E2.34074
G1 X95.660 Y31.070 E0.01675
G1 X148.930 Y84.340 E2.36444
G1 X148.930 Y84.874 E0.01675
G1 X95.126 Y31.070 E2.38813
G1 X94.592 Y31.070 E0.01675
G1 X148.930 Y85.408 E2.41182
G1 X148.930 Y85.941 E0.01675
G1 X94.059 Y31.070 E2.43552
M73 P3 R145
G1 X93.525 Y31.070 E0.01675
G1 X148.930 Y86.475 E2.45921
G1 X148.930 Y87.009 E0.01675
G1 X92.991 Y31.070 E2.48290
G1 X92.457 Y31.070 E0.01675
G1 X148.930 Y87.543 E2.50660
G1 X148.930 Y88.077 E0.01675
G1 X91.923 Y31.070 E2.53029
G1 X91.390 Y31.070 E0.01675
G1 X148.930 Y88.610 E2.55398
G1 X148.930 Y89.144 E0.01675
G1 X90.856 Y31.070 E2.57768
G1 X90.322 Y31.070 E0.01675
G1 X148.930 Y89.678 E2.60137
G1 X148.930 Y90.212 E0.01675
G1 X89.788 Y31.070 E2.62506
G1 X89.254 Y31.070 E0.01675
G1 X148.930 Y90.746 E2.64876
G1 X148.930 Y91.279 E0.01675
G1 X88.721 Y31.070 E2.67245
G1 X88.187 Y31.070 E0.01675
G1 X148.930 Y91.813 E2.69614
G1 X148.930 Y92.347 E0.01675
G1 X87.653 Y31.070 E2.71984
G1 X87.119 Y31.070 E0.01675
G1 X148.930 Y92.881 E2.74353
M73 P4 R145
G1 X148.930 Y93.415 E0.01675
G1 X86.585 Y31.070 E2.76722
G1 X86.052 Y31.070 E0.01675
G1 X148.930 Y93.948 E2.79091
M73 P4 R144
G1 X148.930 Y94.482 E0.01675
G1 X85.518 Y31.070 E2.81461
G1 X84.984 Y31.070 E0.01675
G1 X148.930 Y95.016 E2.83830
G1 X148.930 Y95.550 E0.01675
G1 X84.450 Y31.070 E2.86199
G1 X83.916 Y31.070 E0.01675
G1 X148.930 Y96.084 E2.88569
G1 X148.930 Y96.617 E0.01675
G1 X83.383 Y31.070 E2.90938
G1 X82.849 Y31.070 E0.01675
G1 X148.930 Y97.151 E2.93307
G1 X148.930 Y97.685 E0.01675
G1 X82.315 Y31.070 E2.95677
G1 X81.781 Y31.070 E0.01675
G1 X148.930 Y98.219 E2.98046
G1 X148.930 Y98.753 E0.01675
G1 X81.247 Y31.070 E3.00415
G1 X80.714 Y31.070 E0.01675
G1 X148.930 Y99.286 E3.02785
G1 X148.930 Y99.820 E0.01675
G1 X80.180 Y31.070 E3.05154
G1 X79.646 Y31.070 E0.01675
G1 X148.930 Y100.354 E3.07523
M73 P4 R143
G1 X148.930 Y100.888 E0.01675
G1 X79.112 Y31.070 E3.09893
G1 X78.578 Y31.070 E0.01675
G1 X148.930 Y101.422 E3.12262
G1 X148.930 Y101.955 E0.01675
G1 X78.045 Y31.070 E3.14631
G1 X77.511 Y31.070 E0.01675
G1 X148.930 Y102.489 E3.17001
G1 X148.930 Y103.023 E0.01675
G1 X76.977 Y31.070 E3.19370
M73 P5 R143
G1 X76.443 Y31.070 E0.01675
G1 X148.930 Y103.557 E3.21739
G1 X148.930 Y104.091 E0.01675
G1 X75.909 Y31.070 E3.24109
G1 X75.376 Y31.070 E0.01675
G1 X148.930 Y104.624 E3.26478
G1 X148.930 Y105.158 E0.01675
G1 X74.842 Y31.070 E3.28847
G1 X74.308 Y31.070 E0.01675
G1 X148.930 Y105.692 E3.31217
G1 X148.930 Y106.226 E0.01675
G1 X73.774 Y31.070 E3.33586
G1 X73.240 Y31.070 E0.01675
G1 X148.930 Y106.760 E3.35955
M73 P5 R142
G1 X148.930 Y107.293 E0.01675
G1 X72.707 Y31.070 E3.38325
G1 X72.173 Y31.070 E0.01675
G1 X148.930 Y107.827 E3.40694
G1 X148.930 Y108.361 E0.01675
G1 X71.639 Y31.070 E3.43063
G1 X71.105 Y31.070 E0.01675
G1 X148.930 Y108.895 E3.45433
G1 X148.930 Y109.429 E0.01675
G1 X70.571 Y31.070 E3.47802
G1 X70.038 Y31.070 E0.01675
G1 X148.930 Y109.962 E3.50171
G1 X148.930 Y110.496 E0.01675
G1 X69.504 Y31.070 E3.52541
G1 X68.970 Y31.070 E0.01675
G1 X148.930 Y111.030 E3.54910
G1 X148.930 Y111.564 E0.01675
G1 X68.436 Y31.070 E3.57279
G1 X67.902 Y31.070 E0.01675
G1 X148.930 Y112.098 E3.59648
M73 P6 R142
G1 X148.930 Y112.631 E0.01675
G1 X67.369 Y31.070 E3.62018
M73 P6 R141
G1 X66.835 Y31.070 E0.01675
G1 X148.930 Y113.165 E3.64387
G1 X148.930 Y113.699 E0.01675
G1 X66.301 Y31.070 E3.66756
G1 X65.767 Y31.070 E0.01675
G1 X148.930 Y114.233 E3.69126
G1 X148.930 Y114.767 E0.01675
G1 X65.233 Y31.070 E3.71495
G1 X64.700 Y31.070 E0.01675
G1 X148.930 Y115.300 E3.73864
G1 X148.930 Y115.834 E0.01675
G1 X64.166 Y31.070 E3.76234
G1 X63.632 Y31.070 E0.01675
G1 X148.930 Y116.368 E3.78603
G1 X148.930 Y116.902 E0.01675
G1 X63.098 Y31.070 E3.80972
G1 X62.564 Y31.070 E0.01675
G1 X148.930 Y117.436 E3.83342
G1 X148.930 Y117.969 E0.01675
G1 X62.031 Y31.070 E3.85711
M73 P6 R140
G1 X61.497 Y31.070 E0.01675
G1 X148.930 Y118.503 E3.88080
G1 X148.930 Y119.037 E0.01675
G1 X60.963 Y31.070 E3.90450
G1 X60.429 Y31.070 E0.01675
G1 X148.930 Y119.571 E3.92819
G1 X148.930 Y120.105 E0.01675
G1 X59.895 Y31.070 E3.95188
M73 P7 R140
G1 X59.361 Y31.070 E0.01675
G1 X148.930 Y120.639 E3.97558
G1 X148.930 Y121.172 E0.01675
G1 X58.828 Y31.070 E3.99927
G1 X58.294 Y31.070 E0.01675
G1 X148.930 Y121.706 E4.02296
G1 X148.930 Y122.240 E0.01675
G1 X105.025 Y78.334 E1.94878
G1 X102.764 Y75.824 E0.10602
G1 X101.850 Y75.160 E0.03547
G1 X57.760 Y31.070 E1.95696
G1 X57.226 Y31.070 E0.01675
G1 X99.898 Y73.741 E1.89401
G1 X99.538 Y73.480 E0.01396
G1 X98.753 Y73.130 E0.02696
G1 X56.692 Y31.070 E1.86689
M73 P7 R139
G1 X56.159 Y31.070 E0.01675
G1 X97.791 Y72.702 E1.84788
G1 X96.829 Y72.274 E0.03306
G1 X55.625 Y31.070 E1.82886
G1 X55.091 Y31.070 E0.01675
G1 X95.875 Y71.854 E1.81022
G1 X95.197 Y71.710 E0.02175
G1 X54.557 Y31.070 E1.80382
G1 X54.023 Y31.070 E0.01675
G1 X94.519 Y71.565 E1.79743
G1 X93.841 Y71.421 E0.02175
G1 X53.490 Y31.070 E1.79103
G1 X52.956 Y31.070 E0.01675
G1 X93.163 Y71.277 E1.78464
G1 X92.485 Y71.133 E0.02175
G1 X52.422 Y31.070 E1.77824
G1 X51.888 Y31.070 E0.01675
G1 X91.847 Y71.029 E1.77361
G1 X91.313 Y71.029 E0.01675
G1 X51.354 Y31.070 E1.77361
