; generated by PrusaSlicer 2.3.3+win64 on 2021-08-22 at 03:30:10 UTC


;
;

;
;
; 

; external perimeters extrusion width = 0.45mm
; perimeters extrusion width = 0.45mm
; infill extrusion width = 0.45mm
; solid infill extrusion width = 0.45mm
; top infill extrusion width = 0.40mm
; support material extrusion width = 0.35mm
; first layer extrusion width = 0.42mm

M73 P0 R170
M201 X1250 Y1250 Z400 E5000 ; sets maximum accelerations, mm/sec^2
M203 X180 Y180 Z12 E80 ; sets maximum feedrates, mm/sec
M204 P1250 R1250 T1250 ; sets acceleration (P, T) and retract acceleration (R), mm/sec^2
M205 X8.00 Y8.00 Z2.00 E10.00 ; sets the jerk limits, mm/sec
M205 S0 T0 ; sets the minimum extruding and travel feed rate, mm/sec
M107
;TYPE:Custom
G90 ; use absolute coordinates
M83 ; extruder relative mode
M104 S170 ; set extruder temp for bed leveling
M140 S60 ; set bed temp
M109 R170 ; wait for bed leveling temp
M190 S60 ; wait for bed temp
G28 ; home all without mesh bed level
G29 ; mesh bed leveling 
M104 S215 ; set extruder temp
G92 E0.0
G1 Y-2.0 X179 F2400
G1 Z3 F720
M109 S215 ; wait for extruder temp

; intro line
G1 X170 F1000
G1 Z0.2 F720
G1 X110.0 E8.0 F900
G1 X40.0 E10.0 F700
G92 E0.0

M221 S95 ; set flow
G21 ; set units to millimeters
G90 ; use absolute coordinates
M83 ; use relative distances for extrusion
M900 K0.2 ; Filament gcode LA 1.5
; ; Filament gcode LA 1.0
;LAYER_CHANGE
;Z:0.2
;HEIGHT:0.2
;BEFORE_LAYER_CHANGE
G92 E0.0
;0.2


G1 E-3.20000 F4200.000
G1 Z0.200 F9000.000
;AFTER_LAYER_CHANGE
;0.2
G1 Z0.400
G1 X52.485 Y23.561
G1 Z0.200
G1 E3.20000 F2400.000
M204 S800
;TYPE:Skirt
;WIDTH:0.42
G1 F1200.000
G1 X52.928 Y22.950 E0.02367
G1 X55.377 Y20.645 E0.10545
G1 X55.850 Y20.348 E0.01752
G1 X56.376 Y20.170 E0.01740
G1 X72.711 Y19.949 E0.51223
G1 X122.536 Y20.135 E1.56224
G1 X123.061 Y20.260 E0.01692
G1 X123.548 Y20.501 E0.01704
G1 X123.967 Y20.847 E0.01704
G1 X124.295 Y21.276 E0.01692
G1 X126.228 Y26.313 E0.16915
G1 X126.366 Y27.110 E0.02536
G1 X126.365 Y153.242 E3.95479
G1 X126.145 Y154.177 E0.03013
G1 X123.783 Y158.814 E0.16316
G1 X123.245 Y159.451 E0.02614
G1 X122.524 Y159.861 E0.02602
G1 X121.785 Y159.998 E0.02355
G1 X109.667 Y160.169 E0.38001
G1 X91.552 Y160.169 E0.56796
G1 X56.215 Y159.996 E1.10800
G1 X55.368 Y159.791 E0.02731
G1 X54.652 Y159.295 E0.02731
G1 X52.675 Y156.700 E0.10229
G1 X52.367 Y156.111 E0.02083
G1 X52.229 Y155.315 E0.02535
G1 X52.255 Y24.284 E4.10838
M73 P0 R169
G1 X52.466 Y23.618 E0.02190
M204 S1250
; printing object pillars.stl id:0 copy 0
G1 E-2.24000 F4200.000
;WIPE_START
G1 F7200.000
G1 X52.928 Y22.950 E-0.44996
G1 X53.535 Y22.378 E-0.46204
;WIPE_END
G1 E-0.04800 F4200.000
G1 Z0.400 F9000.000
G1 X54.606 Y24.633
G1 Z0.200
G1 E3.20000 F2400.000
M204 S800
;TYPE:Support material
G1 F1200.000
G1 X54.606 Y33.039 E0.26358
G1 X55.360 Y33.039 E0.02365
G1 X55.360 Y24.803 E0.25826
G1 X56.115 Y24.803 E0.02365
G1 X56.115 Y33.039 E0.25826
G1 X56.341 Y33.039 E0.00709
G1 X56.341 Y34.420 E0.04328
G1 X56.869 Y34.420 E0.01656
G1 X56.869 Y22.495 E0.37388
G1 X57.623 Y22.495 E0.02365
G1 X57.623 Y31.420 E0.27983
G1 X58.377 Y31.420 E0.02365
G1 X58.377 Y22.495 E0.27983
G1 X59.131 Y22.495 E0.02365
G1 X59.131 Y31.420 E0.27983
G1 X59.885 Y31.420 E0.02365
G1 X59.885 Y22.495 E0.27983
G1 X60.639 Y22.495 E0.02365
G1 X60.639 Y31.420 E0.27983
G1 X61.394 Y31.420 E0.02365
G1 X61.394 Y22.495 E0.27983
G1 X62.148 Y22.495 E0.02365
G1 X62.148 Y31.420 E0.27983
G1 X62.902 Y31.420 E0.02365
G1 X62.902 Y22.495 E0.27983
G1 X63.656 Y22.495 E0.02365
G1 X63.656 Y31.420 E0.27983
G1 X64.410 Y31.420 E0.02365
G1 X64.410 Y22.495 E0.27983
G1 X65.164 Y22.495 E0.02365
G1 X65.164 Y31.420 E0.27983
G1 X65.919 Y31.420 E0.02365
G1 X65.919 Y22.495 E0.27983
G1 X66.673 Y22.495 E0.02365
G1 X66.673 Y31.590 E0.28515
M204 S1250
G1 E-2.24000 F4200.000
;WIPE_START
G1 F7200.000
G1 X66.673 Y29.944 E-0.91200
;WIPE_END
G1 E-0.04800 F4200.000
G1 Z0.400 F9000.000
G1 X72.706 Y22.326
G1 Z0.200
G1 E3.20000 F2400.000
M204 S800
G1 F1200.000
G1 X72.706 Y35.347 E0.40826
G1 X73.460 Y35.347 E0.02365
G1 X73.460 Y22.495 E0.40294
G1 X74.214 Y22.495 E0.02365
G1 X74.214 Y35.347 E0.40294
G1 X74.968 Y35.347 E0.02365
G1 X74.968 Y22.495 E0.40294
G1 X75.723 Y22.495 E0.02365
G1 X75.723 Y31.420 E0.27983
G1 X76.477 Y31.420 E0.02365
G1 X76.477 Y22.495 E0.27983
G1 X77.231 Y22.495 E0.02365
G1 X77.231 Y31.420 E0.27983
G1 X77.985 Y31.420 E0.02365
G1 X77.985 Y22.495 E0.27983
G1 X78.739 Y22.495 E0.02365
G1 X78.739 Y31.420 E0.27983
G1 X79.493 Y31.420 E0.02365
G1 X79.493 Y22.495 E0.27983
G1 X80.248 Y22.495 E0.02365
G1 X80.248 Y31.420 E0.27983
G1 X81.002 Y31.420 E0.02365
G1 X81.002 Y22.495 E0.27983
G1 X81.756 Y22.495 E0.02365
G1 X81.756 Y31.420 E0.27983
G1 X82.510 Y31.420 E0.02365
G1 X82.510 Y22.495 E0.27983
G1 X83.264 Y22.495 E0.02365
G1 X83.264 Y31.420 E0.27983
G1 X84.018 Y31.420 E0.02365
G1 X84.018 Y22.495 E0.27983
G1 X84.773 Y22.495 E0.02365
G1 X84.773 Y31.590 E0.28515
M204 S1250
G1 E-2.24000 F4200.000
;WIPE_START
G1 F7200.000
G1 X84.773 Y29.944 E-0.91200
;WIPE_END
G1 E-0.04800 F4200.000
G1 Z0.400 F9000.000
G1 X91.560 Y34.590
G1 Z0.200
G1 E3.20000 F2400.000
M204 S800
G1 F1200.000
G1 X91.560 Y22.495 E0.37921
G1 X92.314 Y22.495 E0.02365
G1 X92.314 Y34.420 E0.37388
G1 X93.068 Y34.420 E0.02365
G1 X93.068 Y22.495 E0.37388
G1 X93.822 Y22.495 E0.02365
G1 X93.822 Y31.420 E0.27983
G1 X94.577 Y31.420 E0.02365
G1 X94.577 Y22.495 E0.27983
G1 X95.331 Y22.495 E0.02365
G1 X95.331 Y31.420 E0.27983
G1 X96.085 Y31.420 E0.02365
G1 X96.085 Y22.495 E0.27983
G1 X96.839 Y22.495 E0.02365
G1 X96.839 Y31.420 E0.27983
G1 X97.593 Y31.420 E0.02365
G1 X97.593 Y22.495 E0.27983
G1 X98.347 Y22.495 E0.02365
G1 X98.347 Y31.420 E0.27983
G1 X99.102 Y31.420 E0.02365
G1 X99.102 Y22.495 E0.27983
G1 X99.856 Y22.495 E0.02365
G1 X99.856 Y31.420 E0.27983
G1 X100.610 Y31.420 E0.02365
G1 X100.610 Y22.495 E0.27983
G1 X101.364 Y22.495 E0.02365
G1 X101.364 Y31.420 E0.27983
G1 X102.118 Y31.420 E0.02365
G1 X102.118 Y22.495 E0.27983
G1 X102.872 Y22.495 E0.02365
G1 X102.872 Y31.590 E0.28515
M204 S1250
G1 E-2.24000 F4200.000
;WIPE_START
G1 F7200.000
G1 X102.872 Y29.944 E-0.91200
;WIPE_END
G1 E-0.04800 F4200.000
G1 Z0.400 F9000.000
G1 X109.660 Y34.590
G1 Z0.200
G1 E3.20000 F2400.000
M204 S800
G1 F1200.000
G1 X109.660 Y22.495 E0.37921
G1 X110.414 Y22.495 E0.02365
G1 X110.414 Y34.420 E0.37388
G1 X111.159 Y34.420 E0.02336
G1 X111.168 Y22.495 E0.37388
G1 X111.922 Y22.495 E0.02365
G1 X111.922 Y31.420 E0.27983
G1 X112.676 Y31.420 E0.02365
G1 X112.676 Y22.495 E0.27983
G1 X113.431 Y22.495 E0.02365
G1 X113.431 Y31.420 E0.27983
G1 X114.185 Y31.420 E0.02365
G1 X114.185 Y22.495 E0.27983
G1 X114.939 Y22.495 E0.02365
G1 X114.939 Y31.420 E0.27983
G1 X115.693 Y31.420 E0.02365
G1 X115.693 Y22.495 E0.27983
G1 X116.447 Y22.495 E0.02365
G1 X116.447 Y31.420 E0.27983
G1 X117.201 Y31.420 E0.02365
G1 X117.201 Y22.495 E0.27983
G1 X117.956 Y22.495 E0.02365
G1 X117.956 Y31.420 E0.27983
G1 X118.710 Y31.420 E0.02365
G1 X118.710 Y22.495 E0.27983
G1 X119.464 Y22.495 E0.02365
G1 X119.464 Y31.420 E0.27983
G1 X120.218 Y31.420 E0.02365
G1 X120.218 Y22.495 E0.27983
G1 X120.972 Y22.495 E0.02365
G1 X120.972 Y31.590 E0.28515
M204 S1250
G1 E-2.24000 F4200.000
;WIPE_START
G1 F7200.000
G1 X120.972 Y29.944 E-0.91200
;WIPE_END
G1 E-0.04800 F4200.000
G1 Z0.400 F9000.000
G1 X123.989 Y153.177
G1 Z0.200
G1 E3.20000 F2400.000
M204 S800
G1 F1200.000
G1 X123.989 Y27.110 E3.95276
G1 X123.235 Y27.110 E0.02365
G1 X123.235 Y153.008 E3.94744
G1 X122.480 Y153.008 E0.02365
G1 X122.481 Y27.110 E3.94744
G1 X122.254 Y27.110 E0.00709
G1 X122.254 Y22.495 E0.14467
G1 X121.726 Y22.495 E0.01656
G1 X121.726 Y157.622 E4.23679
M73 P0 R168
G1 X120.972 Y157.622 E0.02365
G1 X120.972 Y148.697 E0.27982
G1 X120.218 Y148.697 E0.02365
G1 X120.218 Y157.622 E0.27982
G1 X119.464 Y157.622 E0.02365
G1 X119.464 Y148.697 E0.27982
M73 P1 R168
G1 X118.710 Y148.697 E0.02365
G1 X118.710 Y157.622 E0.27982
G1 X117.956 Y157.622 E0.02365
G1 X117.956 Y148.697 E0.27982
G1 X117.201 Y148.697 E0.02365
G1 X117.201 Y157.622 E0.27982
G1 X116.447 Y157.622 E0.02365
G1 X116.447 Y148.697 E0.27982
G1 X115.693 Y148.697 E0.02365
G1 X115.693 Y157.622 E0.27982
G1 X114.939 Y157.622 E0.02365
G1 X114.939 Y148.697 E0.27982
G1 X114.185 Y148.697 E0.02365
G1 X114.185 Y157.622 E0.27982
G1 X113.431 Y157.622 E0.02365
G1 X113.431 Y148.697 E0.27982
G1 X112.676 Y148.697 E0.02365
G1 X112.676 Y157.622 E0.27982
G1 X111.922 Y157.622 E0.02365
G1 X111.922 Y148.697 E0.27982
G1 X111.533 Y148.697 E0.01220
G1 X111.168 Y148.332 E0.01618
G1 X111.168 Y157.622 E0.29127
G1 X110.414 Y157.622 E0.02365
G1 X110.414 Y145.697 E0.37388
G1 X109.660 Y145.697 E0.02365
G1 X109.660 Y157.791 E0.37920
M204 S1250
G1 E-2.24000 F4200.000
;WIPE_START
G1 F7200.000
G1 X109.660 Y156.146 E-0.91200
;WIPE_END
G1 E-0.04800 F4200.000
G1 Z0.400 F9000.000
G1 X105.889 Y153.177
G1 Z0.200
G1 E3.20000 F2400.000
M204 S800
G1 F1200.000
G1 X105.889 Y27.110 E3.95276
G1 X105.135 Y27.110 E0.02365
G1 X105.135 Y153.008 E3.94744
G1 X104.381 Y153.008 E0.02365
G1 X104.381 Y27.110 E3.94744
G1 X103.798 Y27.110 E0.01828
G1 X103.798 Y22.495 E0.14467
G1 X103.627 Y22.495 E0.00537
G1 X103.627 Y157.622 E4.23679
G1 X102.872 Y157.622 E0.02365
G1 X102.872 Y148.697 E0.27982
G1 X102.118 Y148.697 E0.02365
G1 X102.118 Y157.622 E0.27982
G1 X101.364 Y157.622 E0.02365
G1 X101.364 Y148.697 E0.27982
G1 X100.610 Y148.697 E0.02365
G1 X100.610 Y157.622 E0.27982
G1 X99.856 Y157.622 E0.02365
G1 X99.856 Y148.697 E0.27982
G1 X99.102 Y148.697 E0.02365
G1 X99.102 Y157.622 E0.27982
G1 X98.347 Y157.622 E0.02365
G1 X98.347 Y148.697 E0.27982
G1 X97.593 Y148.697 E0.02365
G1 X97.593 Y157.622 E0.27982
G1 X96.839 Y157.622 E0.02365
G1 X96.839 Y148.697 E0.27982
G1 X96.085 Y148.697 E0.02365
G1 X96.085 Y157.622 E0.27982
G1 X95.331 Y157.622 E0.02365
G1 X95.331 Y148.697 E0.27982
G1 X94.577 Y148.697 E0.02365
G1 X94.577 Y157.622 E0.27982
G1 X93.822 Y157.622 E0.02365
G1 X93.822 Y148.697 E0.27982
G1 X93.533 Y148.697 E0.00908
G1 X93.159 Y148.323 E0.01659
G1 X93.159 Y145.697 E0.08233
G1 X93.068 Y145.697 E0.00284
G1 X93.068 Y157.622 E0.37388
G1 X92.314 Y157.622 E0.02365
G1 X92.314 Y145.697 E0.37388
G1 X91.560 Y145.697 E0.02365
G1 X91.560 Y157.791 E0.37920
M204 S1250
G1 E-2.24000 F4200.000
;WIPE_START
G1 F7200.000
G1 X91.560 Y156.146 E-0.91200
;WIPE_END
G1 E-0.04800 F4200.000
G1 Z0.400 F9000.000
G1 X89.297 Y153.177
G1 Z0.200
G1 E3.20000 F2400.000
M204 S800
G1 F1200.000
G1 X89.298 Y27.110 E3.95276
G1 X88.543 Y27.110 E0.02365
G1 X88.543 Y153.008 E3.94744
M73 P1 R167
G1 X87.789 Y153.008 E0.02365
G1 X87.789 Y27.110 E3.94744
G1 X87.035 Y27.110 E0.02365
G1 X87.035 Y153.008 E3.94744
G1 X86.281 Y153.008 E0.02365
G1 X86.281 Y27.110 E3.94744
G1 X85.527 Y27.110 E0.02365
G1 X85.527 Y153.008 E3.94744
G1 X85.341 Y153.008 E0.00582
G1 X85.341 Y157.622 E0.14467
G1 X84.773 Y157.622 E0.01783
G1 X84.773 Y148.697 E0.27982
G1 X84.018 Y148.697 E0.02365
G1 X84.018 Y157.622 E0.27982
G1 X83.264 Y157.622 E0.02365
G1 X83.264 Y148.697 E0.27982
G1 X82.510 Y148.697 E0.02365
G1 X82.510 Y157.622 E0.27982
G1 X81.756 Y157.622 E0.02365
G1 X81.756 Y148.697 E0.27982
G1 X81.002 Y148.697 E0.02365
G1 X81.002 Y157.622 E0.27982
G1 X80.248 Y157.622 E0.02365
G1 X80.248 Y148.697 E0.27982
G1 X79.493 Y148.697 E0.02365
G1 X79.493 Y157.622 E0.27982
G1 X78.739 Y157.622 E0.02365
G1 X78.739 Y148.697 E0.27982
G1 X77.985 Y148.697 E0.02365
G1 X77.985 Y157.622 E0.27982
G1 X77.231 Y157.622 E0.02365
G1 X77.231 Y148.697 E0.27982
G1 X76.477 Y148.697 E0.02365
G1 X76.477 Y157.622 E0.27982
G1 X75.723 Y157.622 E0.02365
G1 X75.723 Y148.697 E0.27982
G1 X75.533 Y148.697 E0.00595
G1 X75.159 Y148.323 E0.01659
G1 X75.159 Y144.771 E0.11138
G1 X74.968 Y144.771 E0.00597
G1 X74.968 Y157.622 E0.40294
G1 X74.214 Y157.622 E0.02365
G1 X74.214 Y144.771 E0.40294
G1 X73.460 Y144.771 E0.02365
G1 X73.460 Y157.622 E0.40294
G1 X72.706 Y157.622 E0.02365
G1 X72.706 Y144.601 E0.40826
M204 S1250
G1 E-2.24000 F4200.000
;WIPE_START
G1 F7200.000
G1 X72.706 Y146.247 E-0.91200
;WIPE_END
G1 E-0.04800 F4200.000
G1 Z0.400 F9000.000
G1 X71.198 Y153.177
G1 Z0.200
G1 E3.20000 F2400.000
M204 S800
G1 F1200.000
G1 X71.198 Y27.110 E3.95276
G1 X70.444 Y27.110 E0.02365
G1 X70.444 Y153.008 E3.94744
M73 P2 R167
G1 X69.689 Y153.008 E0.02365
G1 X69.689 Y27.110 E3.94744
G1 X68.935 Y27.110 E0.02365
G1 X68.935 Y153.008 E3.94744
M73 P2 R166
G1 X68.181 Y153.008 E0.02365
G1 X68.181 Y27.110 E3.94744
G1 X67.427 Y27.110 E0.02365
G1 X67.427 Y153.008 E3.94744
G1 X66.885 Y153.008 E0.01700
G1 X66.885 Y157.622 E0.14467
G1 X66.673 Y157.622 E0.00664
G1 X66.673 Y148.697 E0.27982
G1 X65.919 Y148.697 E0.02365
G1 X65.919 Y157.622 E0.27982
G1 X65.164 Y157.622 E0.02365
G1 X65.164 Y148.697 E0.27982
G1 X64.410 Y148.697 E0.02365
G1 X64.410 Y157.622 E0.27982
G1 X63.656 Y157.622 E0.02365
G1 X63.656 Y148.697 E0.27982
G1 X62.902 Y148.697 E0.02365
G1 X62.902 Y157.622 E0.27982
G1 X62.148 Y157.622 E0.02365
G1 X62.148 Y148.697 E0.27982
G1 X61.394 Y148.697 E0.02365
G1 X61.394 Y157.622 E0.27982
G1 X60.639 Y157.622 E0.02365
G1 X60.639 Y148.697 E0.27982
G1 X59.885 Y148.697 E0.02365
G1 X59.885 Y157.622 E0.27982
G1 X59.131 Y157.622 E0.02365
G1 X59.131 Y148.697 E0.27982
G1 X58.377 Y148.697 E0.02365
G1 X58.377 Y157.622 E0.27982
G1 X57.623 Y157.622 E0.02365
G1 X57.623 Y148.697 E0.27982
G1 X57.533 Y148.697 E0.00282
G1 X57.159 Y148.323 E0.01659
G1 X57.159 Y145.697 E0.08233
G1 X56.869 Y145.697 E0.00910
G1 X56.869 Y157.622 E0.37388
G1 X56.341 Y157.622 E0.01656
G1 X56.341 Y155.315 E0.07234
G1 X56.114 Y155.315 E0.00709
G1 X56.114 Y147.078 E0.25826
G1 X55.360 Y147.078 E0.02365
G1 X55.360 Y155.315 E0.25826
G1 X54.606 Y155.315 E0.02365
G1 X54.606 Y146.908 E0.26358
M204 S1250
G1 E-2.24000 F4200.000
;WIPE_START
G1 F7200.000
G1 X54.606 Y148.554 E-0.91200
;WIPE_END
G1 E-0.04800 F4200.000
G1 Z0.400 F9000.000
G1 X58.585 Y147.272
G1 Z0.200
G1 E3.20000 F2400.000
M204 S800
;TYPE:Perimeter
G1 F1200.000
G1 X58.585 Y32.846 E3.58774
G1 X66.010 Y32.846 E0.23283
G1 X66.010 Y147.272 E3.58774
G1 X58.645 Y147.272 E0.23095
M204 S1250
G1 X58.207 Y147.649 F9000.000
M204 S800
;TYPE:External perimeter
G1 F1200.000
G1 X58.207 Y32.469 E3.61139
G1 X66.388 Y32.469 E0.25648
G1 X66.388 Y147.649 E3.61139
G1 X58.267 Y147.649 E0.25460
M204 S1250
G1 X58.217 Y147.249 F9000.000
G1 E-2.24000 F4200.000
;WIPE_START
G1 F7200.000
G1 X58.267 Y146.003 E-0.91200
;WIPE_END
G1 E-0.04800 F4200.000
G1 Z0.400 F9000.000
G1 X65.132 Y32.959
G1 Z0.200
G1 E3.20000 F2400.000
M204 S800
;TYPE:Solid infill
;WIDTH:0.421314
G1 F1200.000
G1 X65.728 Y33.554 E0.02649
G1 X65.728 Y34.089 E0.01684
G1 X64.767 Y33.129 E0.04275
G1 X64.232 Y33.129 E0.01684
G1 X65.728 Y34.624 E0.06656
G1 X65.728 Y35.160 E0.01684
G1 X63.697 Y33.129 E0.09038
G1 X63.161 Y33.129 E0.01684
G1 X65.728 Y35.695 E0.11419
G1 X65.728 Y36.230 E0.01684
G1 X62.626 Y33.129 E0.13800
G1 X62.091 Y33.129 E0.01684
G1 X65.728 Y36.765 E0.16181
G1 X65.728 Y37.300 E0.01684
G1 X61.556 Y33.129 E0.18562
G1 X61.021 Y33.129 E0.01684
G1 X65.728 Y37.835 E0.20943
G1 X65.728 Y38.370 E0.01684
G1 X60.486 Y33.129 E0.23324
G1 X59.951 Y33.129 E0.01684
G1 X65.728 Y38.905 E0.25705
G1 X65.728 Y39.441 E0.01684
G1 X59.416 Y33.129 E0.28087
G1 X58.880 Y33.129 E0.01684
G1 X65.728 Y39.976 E0.30468
G1 X65.728 Y40.511 E0.01684
G1 X58.867 Y33.651 E0.30526
G1 X58.867 Y34.186 E0.01684
G1 X65.728 Y41.046 E0.30526
G1 X65.728 Y41.581 E0.01684
G1 X58.867 Y34.721 E0.30526
G1 X58.867 Y35.256 E0.01684
G1 X65.728 Y42.116 E0.30526
G1 X65.728 Y42.651 E0.01684
G1 X58.867 Y35.791 E0.30526
G1 X58.867 Y36.326 E0.01684
G1 X65.728 Y43.187 E0.30526
G1 X65.728 Y43.722 E0.01684
G1 X58.867 Y36.861 E0.30526
G1 X58.867 Y37.397 E0.01684
G1 X65.728 Y44.257 E0.30526
G1 X65.728 Y44.792 E0.01684
G1 X58.867 Y37.932 E0.30526
G1 X58.867 Y38.467 E0.01684
G1 X65.728 Y45.327 E0.30526
M73 P2 R165
G1 X65.728 Y45.862 E0.01684
G1 X58.867 Y39.002 E0.30526
G1 X58.867 Y39.537 E0.01684
G1 X65.728 Y46.397 E0.30526
G1 X65.728 Y46.932 E0.01684
G1 X58.867 Y40.072 E0.30526
G1 X58.867 Y40.607 E0.01684
G1 X65.728 Y47.468 E0.30526
G1 X65.728 Y48.003 E0.01684
G1 X58.867 Y41.142 E0.30526
G1 X58.867 Y41.678 E0.01684
G1 X65.728 Y48.538 E0.30526
G1 X65.728 Y49.073 E0.01684
G1 X58.867 Y42.213 E0.30526
