; generated by PrusaSlicer 2.3.3+win64 on 2021-08-22 at 03:40:20 UTC


;
;

;
;
; 

; external perimeters extrusion width = 0.45mm
; perimeters extrusion width = 0.45mm
; infill extrusion width = 0.45mm
; solid infill extrusion width = 0.45mm
; top infill extrusion width = 0.40mm
; first layer extrusion width = 0.42mm

M73 P0 R109
M201 X1250 Y1250 Z400 E5000 ; sets maximum accelerations, mm/sec^2
M203 X180 Y180 Z12 E80 ; sets maximum feedrates, mm/sec
M204 P1250 R1250 T1250 ; sets acceleration (P, T) and retract acceleration (R), mm/sec^2
M205 X8.00 Y8.00 Z2.00 E10.00 ; sets the jerk limits, mm/sec
M205 S0 T0 ; sets the minimum extruding and travel feed rate, mm/sec
M107
;TYPE:Custom
G90 ; use absolute coordinates
M83 ; extruder relative mode
M104 S170 ; set extruder temp for bed leveling
M140 S60 ; set bed temp
M109 R170 ; wait for bed leveling temp
M190 S60 ; wait for bed temp
G28 ; home all without mesh bed level
G29 ; mesh bed leveling 
M104 S215 ; set extruder temp
G92 E0.0
G1 Y-2.0 X179 F2400
G1 Z3 F720
M109 S215 ; wait for extruder temp

; intro line
G1 X170 F1000
G1 Z0.2 F720
G1 X110.0 E8.0 F900
G1 X40.0 E10.0 F700
G92 E0.0

M221 S95 ; set flow
G21 ; set units to millimeters
G90 ; use absolute coordinates
M83 ; use relative distances for extrusion
M900 K0.2 ; Filament gcode LA 1.5
; ; Filament gcode LA 1.0
;LAYER_CHANGE
;Z:0.2
;HEIGHT:0.2
;BEFORE_LAYER_CHANGE
G92 E0.0
;0.2


G1 E-3.20000 F4200.000
G1 Z0.200 F9000.000
;AFTER_LAYER_CHANGE
;0.2
G1 Z0.400
G1 X21.305 Y21.333
G1 Z0.200
G1 E3.20000 F2400.000
M204 S800
;TYPE:Skirt
;WIDTH:0.42
G1 F1200.000
G1 X22.076 Y20.810 E0.02919
G1 X22.987 Y20.623 E0.02919
G1 X157.004 Y20.623 E4.20199
M73 P0 R108
G1 X157.906 Y20.802 E0.02884
G1 X158.672 Y21.311 E0.02884
G1 X159.188 Y22.072 E0.02884
G1 X159.377 Y22.972 E0.02884
G1 X159.377 Y157.011 E4.20270
G1 X159.198 Y157.906 E0.02860
G1 X158.695 Y158.667 E0.02860
G1 X157.917 Y159.193 E0.02942
G1 X157.000 Y159.377 E0.02934
G1 X22.989 Y159.377 E4.20183
G1 X22.094 Y159.198 E0.02860
G1 X21.333 Y158.695 E0.02860
G1 X20.807 Y157.917 E0.02942
G1 X20.623 Y157.000 E0.02934
G1 X20.623 Y22.989 E4.20183
G1 X20.802 Y22.094 E0.02860
G1 X21.272 Y21.383 E0.02672
M204 S1250
; printing object top.stl id:0 copy 0
G1 E-2.24000 F4200.000
;WIPE_START
G1 F7200.000
G1 X22.076 Y20.810 E-0.54680
G1 X22.721 Y20.678 E-0.36520
;WIPE_END
G1 E-0.04800 F4200.000
G1 Z0.400 F9000.000
G1 X29.388 Y151.394
G1 Z0.200
G1 E3.20000 F2400.000
M204 S800
;TYPE:External perimeter
G1 F1200.000
G1 X150.612 Y151.393 E3.80088
G1 X150.591 Y152.296 E0.02832
G1 X150.518 Y153.265 E0.03047
G1 X150.518 Y153.735 E0.01474
G1 X150.591 Y154.704 E0.03047
G1 X150.612 Y155.607 E0.02832
G1 X29.388 Y155.607 E3.80088
G1 X29.409 Y154.704 E0.02832
G1 X29.482 Y153.735 E0.03047
G1 X29.482 Y153.265 E0.01474
G1 X29.409 Y152.296 E0.03047
G1 X29.390 Y151.454 E0.02642
M204 S1250
G1 X29.381 Y150.994 F9000.000
G1 X28.692 Y151.912
M204 S800
G1 F1200.000
G1 X28.868 Y152.208 E0.01081
G1 X28.997 Y152.529 E0.01084
G1 X29.069 Y152.861 E0.01064
G1 X29.102 Y153.187 E0.01029
G1 X29.102 Y153.813 E0.01961
G1 X29.069 Y154.139 E0.01029
G1 X28.997 Y154.471 E0.01064
G1 X28.868 Y154.792 E0.01084
G1 X28.692 Y155.088 E0.01080
G1 X28.476 Y155.354 E0.01075
G1 X28.228 Y155.588 E0.01070
G1 X27.953 Y155.789 E0.01068
G1 X27.654 Y155.953 E0.01068
G1 X27.338 Y156.078 E0.01067
G1 X27.008 Y156.163 E0.01067
G1 X26.670 Y156.205 E0.01067
G1 X26.330 Y156.205 E0.01067
G1 X25.992 Y156.163 E0.01067
G1 X25.662 Y156.078 E0.01067
G1 X25.346 Y155.953 E0.01067
G1 X25.047 Y155.789 E0.01067
G1 X24.772 Y155.589 E0.01067
G1 X24.523 Y155.355 E0.01072
G1 X24.286 Y155.061 E0.01183
G1 X24.125 Y154.806 E0.00946
G1 X23.980 Y154.498 E0.01067
G1 X23.874 Y154.174 E0.01067
G1 X23.819 Y153.883 E0.00928
G1 X23.789 Y153.502 E0.01201
G1 X23.811 Y153.160 E0.01072
G1 X23.867 Y152.864 E0.00946
G1 X23.979 Y152.503 E0.01183
G1 X24.125 Y152.194 E0.01072
G1 X24.307 Y151.907 E0.01068
G1 X24.525 Y151.644 E0.01069
G1 X24.775 Y151.411 E0.01072
G1 X25.056 Y151.214 E0.01077
G1 X25.365 Y151.059 E0.01084
G1 X25.699 Y150.958 E0.01094
G1 X26.342 Y150.890 E0.02025
G1 X26.972 Y150.911 E0.01979
G1 X27.305 Y150.959 E0.01052
G1 X27.635 Y151.059 E0.01082
G1 X27.944 Y151.214 E0.01084
G1 X28.225 Y151.412 E0.01078
G1 X28.476 Y151.646 E0.01075
G1 X28.654 Y151.866 E0.00888
M204 S1250
G1 X29.035 Y151.883 F9000.000
G1 X28.607 Y150.612
M204 S800
G1 F1200.000
G1 X27.704 Y150.591 E0.02832
G1 X26.735 Y150.516 E0.03047
G1 X26.265 Y150.516 E0.01472
G1 X25.296 Y150.591 E0.03047
G1 X24.393 Y150.612 E0.02832
G1 X24.393 Y29.388 E3.80089
G1 X25.296 Y29.409 E0.02832
G1 X26.265 Y29.484 E0.03047
G1 X26.735 Y29.484 E0.01472
G1 X27.704 Y29.409 E0.03047
G1 X28.607 Y29.388 E0.02832
G1 X28.607 Y150.552 E3.79900
M204 S1250
M73 P1 R108
G1 X28.602 Y151.012 F9000.000
G1 E-2.24000 F4200.000
;WIPE_START
G1 F7200.000
G1 X27.704 Y150.591 E-0.50095
G1 X26.964 Y150.534 E-0.41105
;WIPE_END
G1 E-0.04800 F4200.000
G1 Z0.400 F9000.000
G1 X23.787 Y154.975
G1 Z0.200
G1 E3.20000 F2400.000
M204 S800
;TYPE:Perimeter
G1 F1200.000
G1 X23.979 Y155.281 E0.01133
G1 X24.246 Y155.612 E0.01332
G1 X24.531 Y155.880 E0.01228
G1 X24.845 Y156.108 E0.01216
G1 X25.036 Y156.213 E0.00684
G1 X23.787 Y156.213 E0.03917
G1 X23.787 Y155.035 E0.03695
M204 S1250
G1 E-2.24000 F4200.000
;WIPE_START
G1 F7200.000
G1 X23.979 Y155.281 E-0.17303
G1 X24.246 Y155.612 E-0.23546
G1 X24.531 Y155.880 E-0.21712
G1 X24.845 Y156.108 E-0.21495
G1 X24.958 Y156.170 E-0.07143
;WIPE_END
G1 E-0.04800 F4200.000
G1 Z0.400 F9000.000
G1 X23.787 Y152.026
G1 Z0.200
G1 E3.20000 F2400.000
M204 S800
G1 F1200.000
G1 X23.787 Y27.974 E3.88953
G1 X24.002 Y28.316 E0.01264
G1 X24.250 Y28.615 E0.01220
G1 X24.537 Y28.883 E0.01231
G1 X24.732 Y29.019 E0.00744
G1 X24.016 Y29.002 E0.02245
G1 X24.016 Y150.998 E3.82509
M73 P1 R107
G1 X24.732 Y150.981 E0.02245
G1 X24.537 Y151.117 E0.00744
G1 X24.250 Y151.385 E0.01231
G1 X24.002 Y151.684 E0.01220
G1 X23.818 Y151.974 E0.01076
M204 S1250
G1 E-2.24000 F4200.000
;WIPE_START
G1 F7200.000
G1 X23.817 Y150.328 E-0.91200
;WIPE_END
G1 E-0.04800 F4200.000
G1 Z0.400 F9000.000
G1 X23.787 Y25.025
G1 Z0.200
G1 E3.20000 F2400.000
M204 S800
G1 F1200.000
G1 X23.787 Y23.787 E0.03883
G1 X25.036 Y23.787 E0.03917
G1 X24.845 Y23.892 E0.00684
G1 X24.531 Y24.120 E0.01216
G1 X24.248 Y24.386 E0.01216
G1 X24.001 Y24.685 E0.01216
G1 X23.818 Y24.974 E0.01075
M204 S1250
G1 X24.136 Y25.176 F9000.000
M204 S800
;TYPE:External perimeter
G1 F1200.000
G1 X24.307 Y24.907 E0.01000
G1 X24.524 Y24.644 E0.01067
G1 X24.772 Y24.411 E0.01067
G1 X25.047 Y24.211 E0.01067
G1 X25.346 Y24.047 E0.01067
G1 X25.662 Y23.922 E0.01067
G1 X25.992 Y23.837 E0.01067
G1 X26.330 Y23.795 E0.01067
G1 X26.670 Y23.795 E0.01067
G1 X27.008 Y23.837 E0.01067
G1 X27.338 Y23.922 E0.01067
G1 X27.654 Y24.047 E0.01067
G1 X27.953 Y24.211 E0.01068
G1 X28.228 Y24.412 E0.01068
G1 X28.476 Y24.646 E0.01070
G1 X28.692 Y24.912 E0.01075
G1 X28.868 Y25.208 E0.01080
G1 X28.997 Y25.529 E0.01084
G1 X29.070 Y25.864 E0.01075
G1 X29.112 Y26.500 E0.01998
G1 X29.070 Y27.136 E0.01998
G1 X28.997 Y27.471 E0.01075
G1 X28.868 Y27.792 E0.01084
G1 X28.692 Y28.088 E0.01081
G1 X28.476 Y28.354 E0.01076
G1 X28.225 Y28.588 E0.01075
G1 X27.944 Y28.786 E0.01078
G1 X27.635 Y28.941 E0.01084
G1 X27.301 Y29.042 E0.01094
G1 X26.658 Y29.110 E0.02025
G1 X26.028 Y29.089 E0.01979
G1 X25.695 Y29.041 E0.01052
G1 X25.365 Y28.941 E0.01082
G1 X25.056 Y28.786 E0.01084
G1 X24.775 Y28.589 E0.01077
G1 X24.525 Y28.356 E0.01072
G1 X24.307 Y28.093 E0.01069
G1 X24.125 Y27.806 E0.01068
G1 X23.980 Y27.498 E0.01067
G1 X23.874 Y27.174 E0.01067
G1 X23.811 Y26.840 E0.01067
G1 X23.789 Y26.500 E0.01067
G1 X23.811 Y26.160 E0.01067
G1 X23.874 Y25.826 E0.01067
G1 X23.980 Y25.502 E0.01067
G1 X24.108 Y25.229 E0.00946
M204 S1250
G1 X23.971 Y24.903 F9000.000
G1 E-2.24000 F4200.000
;WIPE_START
G1 F7200.000
G1 X24.307 Y24.907 E-0.20989
G1 X24.524 Y24.644 E-0.18865
G1 X24.772 Y24.411 E-0.18865
G1 X25.047 Y24.211 E-0.18865
G1 X25.263 Y24.093 E-0.13615
;WIPE_END
G1 E-0.04800 F4200.000
G1 Z0.400 F9000.000
G1 X29.388 Y24.394
G1 Z0.200
G1 E3.20000 F2400.000
M204 S800
G1 F1200.000
G1 X150.612 Y24.393 E3.80088
G1 X150.591 Y25.296 E0.02832
G1 X150.518 Y26.265 E0.03047
G1 X150.518 Y26.735 E0.01474
G1 X150.591 Y27.704 E0.03047
G1 X150.612 Y28.607 E0.02832
G1 X29.388 Y28.607 E3.80088
G1 X29.409 Y27.704 E0.02832
G1 X29.482 Y26.735 E0.03047
G1 X29.482 Y26.265 E0.01474
G1 X29.409 Y25.296 E0.03047
G1 X29.390 Y24.454 E0.02642
M204 S1250
G1 X29.381 Y23.994 F9000.000
G1 E-2.24000 F4200.000
;WIPE_START
G1 F7200.000
G1 X31.035 Y24.453 E-0.91200
;WIPE_END
G1 E-0.04800 F4200.000
G1 Z0.400 F9000.000
G1 X151.393 Y29.388
G1 Z0.200
G1 E3.20000 F2400.000
M204 S800
G1 F1200.000
G1 X152.296 Y29.409 E0.02832
G1 X153.265 Y29.484 E0.03047
G1 X153.735 Y29.484 E0.01472
G1 X154.704 Y29.409 E0.03047
G1 X155.607 Y29.388 E0.02832
G1 X155.607 Y150.612 E3.80089
G1 X154.704 Y150.591 E0.02832
G1 X153.735 Y150.516 E0.03047
G1 X153.265 Y150.516 E0.01472
G1 X152.296 Y150.591 E0.03047
G1 X151.393 Y150.612 E0.02832
G1 X151.393 Y29.448 E3.79900
M204 S1250
G1 X151.398 Y28.988 F9000.000
G1 E-2.24000 F4200.000
;WIPE_START
G1 F7200.000
G1 X152.296 Y29.409 E-0.50095
G1 X153.036 Y29.466 E-0.41105
;WIPE_END
G1 E-0.04800 F4200.000
G1 Z0.400 F9000.000
G1 X148.787 Y31.213
G1 Z0.200
G1 E3.20000 F2400.000
M204 S800
;TYPE:Perimeter
G1 F1200.000
G1 X148.787 Y148.787 E3.68646
G1 X31.213 Y148.787 E3.68646
G1 X31.213 Y31.213 E3.68646
M73 P2 R107
G1 X148.727 Y31.213 E3.68457
M204 S1250
G1 X148.410 Y31.590 F9000.000
M204 S800
;TYPE:External perimeter
G1 F1200.000
G1 X148.410 Y148.410 E3.66281
M73 P2 R106
G1 X31.590 Y148.410 E3.66281
G1 X31.590 Y31.590 E3.66281
G1 X148.350 Y31.590 E3.66093
M204 S1250
G1 X148.796 Y31.486 F9000.000
G1 E-2.24000 F4200.000
;WIPE_START
G1 F7200.000
G1 X148.351 Y33.236 E-0.91200
;WIPE_END
G1 E-0.04800 F4200.000
G1 Z0.400 F9000.000
G1 X151.016 Y29.002
G1 Z0.200
G1 E3.20000 F2400.000
M204 S800
;TYPE:Perimeter
G1 F1200.000
G1 X151.016 Y150.998 E3.82509
G1 X151.732 Y150.981 E0.02245
G1 X151.537 Y151.118 E0.00748
G1 X151.248 Y151.388 E0.01240
G1 X150.981 Y151.724 E0.01344
G1 X150.998 Y151.016 E0.02220
G1 X30.798 Y151.013 E3.76877
G1 X29.002 Y151.018 E0.05632
G1 X29.019 Y151.724 E0.02216
G1 X28.752 Y151.388 E0.01344
G1 X28.463 Y151.118 E0.01240
G1 X28.268 Y150.981 E0.00748
G1 X28.984 Y150.998 E0.02245
G1 X28.984 Y29.002 E3.82509
G1 X28.268 Y29.019 E0.02245
G1 X28.463 Y28.882 E0.00748
G1 X28.752 Y28.612 E0.01240
G1 X29.019 Y28.276 E0.01344
G1 X29.002 Y28.984 E0.02220
G1 X150.998 Y28.984 E3.82509
G1 X150.981 Y28.276 E0.02220
G1 X151.248 Y28.612 E0.01344
G1 X151.537 Y28.882 E0.01240
G1 X151.732 Y29.019 E0.00748
G1 X151.076 Y29.004 E0.02057
M204 S1250
G1 E-2.24000 F4200.000
;WIPE_START
G1 F7200.000
G1 X151.075 Y30.649 E-0.91200
;WIPE_END
G1 E-0.04800 F4200.000
G1 Z0.400 F9000.000
G1 X150.981 Y24.724
G1 Z0.200
G1 E3.20000 F2400.000
M204 S800
G1 F1200.000
G1 X150.998 Y24.016 E0.02220
G1 X30.798 Y24.013 E3.76877
G1 X29.002 Y24.018 E0.05632
G1 X29.019 Y24.724 E0.02215
G1 X28.753 Y24.389 E0.01339
G1 X28.469 Y24.121 E0.01225
G1 X28.155 Y23.892 E0.01219
G1 X27.964 Y23.787 E0.00685
G1 X152.036 Y23.787 E3.89021
M73 P3 R106
G1 X151.845 Y23.892 E0.00685
G1 X151.531 Y24.121 E0.01219
G1 X151.247 Y24.389 E0.01225
G1 X151.015 Y24.675 E0.01152
M204 S1250
G1 X151.308 Y24.912 F9000.000
M204 S800
;TYPE:External perimeter
G1 F1200.000
G1 X151.524 Y24.646 E0.01075
G1 X151.772 Y24.412 E0.01070
G1 X152.047 Y24.211 E0.01068
G1 X152.346 Y24.047 E0.01068
G1 X152.662 Y23.922 E0.01067
G1 X152.992 Y23.837 E0.01067
G1 X153.330 Y23.795 E0.01067
G1 X153.670 Y23.795 E0.01067
G1 X154.008 Y23.837 E0.01067
G1 X154.338 Y23.922 E0.01067
G1 X154.654 Y24.047 E0.01067
G1 X154.953 Y24.211 E0.01067
G1 X155.228 Y24.411 E0.01067
G1 X155.476 Y24.644 E0.01067
G1 X155.693 Y24.907 E0.01067
G1 X155.875 Y25.194 E0.01067
G1 X156.020 Y25.502 E0.01067
G1 X156.126 Y25.826 E0.01067
G1 X156.189 Y26.160 E0.01067
G1 X156.211 Y26.500 E0.01067
G1 X156.189 Y26.840 E0.01067
G1 X156.126 Y27.174 E0.01067
G1 X156.020 Y27.498 E0.01067
G1 X155.875 Y27.806 E0.01067
G1 X155.693 Y28.093 E0.01068
G1 X155.475 Y28.356 E0.01069
G1 X155.225 Y28.589 E0.01072
M73 P3 R105
G1 X154.944 Y28.786 E0.01077
G1 X154.635 Y28.941 E0.01084
G1 X154.301 Y29.042 E0.01094
G1 X153.658 Y29.110 E0.02025
G1 X153.028 Y29.089 E0.01979
G1 X152.695 Y29.041 E0.01052
G1 X152.365 Y28.941 E0.01082
G1 X152.056 Y28.786 E0.01084
G1 X151.775 Y28.588 E0.01078
G1 X151.524 Y28.354 E0.01075
G1 X151.308 Y28.088 E0.01076
G1 X151.132 Y27.792 E0.01081
G1 X151.003 Y27.471 E0.01084
G1 X150.930 Y27.136 E0.01075
G1 X150.888 Y26.500 E0.01998
G1 X150.930 Y25.864 E0.01998
G1 X151.003 Y25.529 E0.01075
G1 X151.132 Y25.208 E0.01084
G1 X151.277 Y24.964 E0.00892
M204 S1250
G1 X151.162 Y24.602 F9000.000
G1 E-2.24000 F4200.000
;WIPE_START
G1 F7200.000
G1 X151.524 Y24.646 E-0.22292
G1 X151.772 Y24.412 E-0.18918
G1 X152.047 Y24.211 E-0.18880
G1 X152.346 Y24.047 E-0.18868
G1 X152.551 Y23.966 E-0.12242
;WIPE_END
G1 E-0.04800 F4200.000
G1 Z0.400 F9000.000
G1 X154.964 Y23.787
G1 Z0.200
G1 E3.20000 F2400.000
M204 S800
;TYPE:Perimeter
G1 F1200.000
G1 X156.213 Y23.787 E0.03917
G1 X156.213 Y25.025 E0.03883
G1 X155.999 Y24.685 E0.01262
G1 X155.752 Y24.386 E0.01216
G1 X155.469 Y24.120 E0.01216
G1 X155.155 Y23.892 E0.01216
G1 X155.016 Y23.816 E0.00496
M204 S1250
G1 E-2.24000 F4200.000
;WIPE_START
G1 F7200.000
G1 X156.213 Y23.787 E-0.66328
G1 X156.213 Y24.236 E-0.24872
;WIPE_END
G1 E-0.04800 F4200.000
G1 Z0.400 F9000.000
G1 X150.981 Y155.276
G1 Z0.200
G1 E3.20000 F2400.000
M204 S800
G1 F1200.000
G1 X151.247 Y155.611 E0.01339
G1 X151.531 Y155.879 E0.01225
G1 X151.845 Y156.108 E0.01219
G1 X152.036 Y156.213 E0.00685
G1 X27.964 Y156.213 E3.89021
G1 X28.155 Y156.108 E0.00685
G1 X28.469 Y155.879 E0.01219
G1 X28.753 Y155.611 E0.01225
G1 X29.019 Y155.276 E0.01339
G1 X29.002 Y155.984 E0.02220
G1 X150.998 Y155.984 E3.82509
G1 X150.983 Y155.336 E0.02032
M204 S1250
G1 X151.308 Y155.088 F9000.000
M204 S800
;TYPE:External perimeter
G1 F1200.000
G1 X151.132 Y154.792 E0.01080
G1 X151.003 Y154.471 E0.01084
G1 X150.931 Y154.139 E0.01064
G1 X150.898 Y153.813 E0.01029
G1 X150.898 Y153.187 E0.01960
G1 X150.931 Y152.861 E0.01029
G1 X151.003 Y152.529 E0.01064
G1 X151.132 Y152.208 E0.01084
G1 X151.308 Y151.912 E0.01081
G1 X151.524 Y151.646 E0.01076
G1 X151.775 Y151.412 E0.01075
G1 X152.056 Y151.214 E0.01078
G1 X152.365 Y151.059 E0.01084
G1 X152.699 Y150.958 E0.01094
G1 X153.342 Y150.890 E0.02025
G1 X153.972 Y150.911 E0.01979
G1 X154.305 Y150.959 E0.01052
G1 X154.635 Y151.059 E0.01082
G1 X154.944 Y151.214 E0.01084
G1 X155.225 Y151.411 E0.01077
G1 X155.475 Y151.644 E0.01072
G1 X155.693 Y151.907 E0.01069
G1 X155.875 Y152.194 E0.01068
G1 X156.020 Y152.502 E0.01067
G1 X156.126 Y152.826 E0.01067
G1 X156.189 Y153.160 E0.01067
G1 X156.211 Y153.502 E0.01072
G1 X156.181 Y153.883 E0.01201
G1 X156.126 Y154.174 E0.00928
G1 X156.020 Y154.498 E0.01067
G1 X155.875 Y154.806 E0.01067
G1 X155.714 Y155.061 E0.00946
G1 X155.477 Y155.355 E0.01183
G1 X155.228 Y155.589 E0.01072
G1 X154.953 Y155.789 E0.01067
G1 X154.654 Y155.953 E0.01067
G1 X154.338 Y156.078 E0.01067
G1 X154.008 Y156.163 E0.01067
G1 X153.670 Y156.205 E0.01067
G1 X153.330 Y156.205 E0.01067
G1 X152.992 Y156.163 E0.01067
G1 X152.662 Y156.078 E0.01067
G1 X152.346 Y155.953 E0.01067
G1 X152.047 Y155.789 E0.01068
G1 X151.772 Y155.588 E0.01068
G1 X151.524 Y155.354 E0.01070
G1 X151.346 Y155.134 E0.00887
M204 S1250
G1 X150.965 Y155.116 F9000.000
G1 E-2.24000 F4200.000
;WIPE_START
G1 F7200.000
G1 X151.132 Y154.792 E-0.22391
G1 X151.003 Y154.471 E-0.19162
G1 X150.931 Y154.139 E-0.18799
G1 X150.898 Y153.813 E-0.18184
G1 X150.898 Y153.584 E-0.12664
;WIPE_END
G1 E-0.04800 F4200.000
G1 Z0.400 F9000.000
G1 X155.268 Y150.981
G1 Z0.200
G1 E3.20000 F2400.000
M204 S800
;TYPE:Perimeter
G1 F1200.000
G1 X155.984 Y150.998 E0.02245
G1 X155.984 Y29.002 E3.82509
G1 X155.268 Y29.019 E0.02245
G1 X155.463 Y28.883 E0.00744
G1 X155.750 Y28.615 E0.01231
G1 X155.998 Y28.316 E0.01220
G1 X156.213 Y27.974 E0.01264
G1 X156.213 Y152.026 E3.88953
G1 X155.998 Y151.684 E0.01264
