; generated by PrusaSlicer 2.3.3+win64 on 2021-08-23 at 20:15:21 UTC


;
;

;
;
; 

; external perimeters extrusion width = 0.45mm
; perimeters extrusion width = 0.45mm
; infill extrusion width = 0.45mm
; solid infill extrusion width = 0.45mm
; top infill extrusion width = 0.40mm
; first layer extrusion width = 0.42mm

M73 P0 R109
M201 X1250 Y1250 Z400 E5000 ; sets maximum accelerations, mm/sec^2
M203 X180 Y180 Z12 E80 ; sets maximum feedrates, mm/sec
M204 P1250 R1250 T1250 ; sets acceleration (P, T) and retract acceleration (R), mm/sec^2
M205 X8.00 Y8.00 Z2.00 E10.00 ; sets the jerk limits, mm/sec
M205 S0 T0 ; sets the minimum extruding and travel feed rate, mm/sec
M107
;TYPE:Custom
G90 ; use absolute coordinates
M83 ; extruder relative mode
M104 S170 ; set extruder temp for bed leveling
M140 S50 ; set bed temp
M109 R170 ; wait for bed leveling temp
M190 S50 ; wait for bed temp
G28 ; home all without mesh bed level
G29 ; mesh bed leveling 
M104 S215 ; set extruder temp
G92 E0.0
G1 Y-2.0 X179 F2400
G1 Z3 F720
M109 S215 ; wait for extruder temp

; intro line
G1 X170 F1000
G1 Z0.2 F720
G1 X110.0 E8.0 F900
G1 X40.0 E10.0 F700
G92 E0.0

M221 S95 ; set flow
G21 ; set units to millimeters
G90 ; use absolute coordinates
M83 ; use relative distances for extrusion
M900 K0.2 ; Filament gcode LA 1.5
; ; Filament gcode LA 1.0
;LAYER_CHANGE
;Z:0.2
;HEIGHT:0.2
;BEFORE_LAYER_CHANGE
G92 E0.0
;0.2


G1 E-3.20000 F4200.000
G1 Z0.200 F9000.000
;AFTER_LAYER_CHANGE
;0.2
G1 Z0.400
G1 X21.305 Y21.333
G1 Z0.200
G1 E3.20000 F2400.000
M204 S800
;TYPE:Skirt
;WIDTH:0.42
G1 F1200.000
G1 X22.076 Y20.810 E0.02919
G1 X22.987 Y20.623 E0.02919
G1 X157.004 Y20.623 E4.20199
G1 X157.906 Y20.802 E0.02884
G1 X158.672 Y21.311 E0.02884
G1 X159.188 Y22.072 E0.02884
G1 X159.377 Y22.972 E0.02884
G1 X159.377 Y157.011 E4.20270
G1 X159.198 Y157.906 E0.02860
G1 X158.695 Y158.667 E0.02860
G1 X157.917 Y159.193 E0.02942
G1 X157.000 Y159.377 E0.02934
G1 X22.989 Y159.377 E4.20183
G1 X22.094 Y159.198 E0.02860
G1 X21.333 Y158.695 E0.02860
G1 X20.807 Y157.917 E0.02942
G1 X20.623 Y157.000 E0.02934
G1 X20.623 Y22.989 E4.20183
M73 P0 R108
G1 X20.802 Y22.094 E0.02860
G1 X21.272 Y21.383 E0.02672
M204 S1250
; printing object top.stl id:0 copy 0
G1 E-2.24000 F4200.000
;WIPE_START
G1 F7200.000
G1 X22.076 Y20.810 E-0.54680
G1 X22.721 Y20.678 E-0.36520
;WIPE_END
G1 E-0.04800 F4200.000
G1 Z0.400 F9000.000
G1 X150.563 Y151.479
G1 Z0.200
G1 E3.20000 F2400.000
M204 S800
;TYPE:External perimeter
G1 F1200.000
G1 X150.410 Y152.784 E0.04117
G1 X150.410 Y154.216 E0.04492
G1 X150.563 Y155.521 E0.04117
G1 X149.711 Y155.589 E0.02679
G1 X148.703 Y155.610 E0.03160
G1 X31.798 Y155.610 E3.66548
G1 X30.287 Y155.589 E0.04737
G1 X29.437 Y155.521 E0.02674
G1 X29.590 Y154.216 E0.04117
G1 X29.590 Y152.784 E0.04492
G1 X29.437 Y151.479 E0.04117
G1 X30.287 Y151.411 E0.02674
G1 X30.795 Y151.393 E0.01593
G1 X149.204 Y151.393 E3.71264
G1 X149.713 Y151.411 E0.01594
G1 X150.503 Y151.475 E0.02486
M204 S1250
G1 X150.961 Y151.519 F9000.000
G1 E-2.24000 F4200.000
;WIPE_START
G1 F7200.000
G1 X150.410 Y152.784 E-0.72726
G1 X150.410 Y153.117 E-0.18474
;WIPE_END
G1 E-0.04800 F4200.000
G1 Z0.400 F9000.000
G1 X29.313 Y153.857
G1 Z0.200
G1 E3.20000 F2400.000
M204 S800
G1 F1200.000
G1 X29.089 Y154.877 E0.03272
G1 X28.944 Y155.224 E0.01181
G1 X28.710 Y155.560 E0.01285
G1 X28.429 Y155.834 E0.01228
G1 X28.106 Y156.054 E0.01225
G1 X27.750 Y156.211 E0.01222
G1 X27.379 Y156.302 E0.01198
G1 X26.674 Y156.372 E0.02219
G1 X25.979 Y156.349 E0.02181
G1 X25.618 Y156.302 E0.01143
G1 X25.250 Y156.211 E0.01187
G1 X24.894 Y156.055 E0.01220
G1 X24.572 Y155.838 E0.01218
G1 X24.288 Y155.576 E0.01211
G1 X24.046 Y155.274 E0.01213
G1 X23.855 Y154.933 E0.01225
G1 X23.732 Y154.562 E0.01227
G1 X23.637 Y153.849 E0.02254
G1 X23.637 Y153.155 E0.02178
G1 X23.671 Y152.799 E0.01119
G1 X23.734 Y152.435 E0.01159
G1 X23.855 Y152.066 E0.01216
G1 X24.049 Y151.726 E0.01229
G1 X24.297 Y151.424 E0.01224
G1 X24.597 Y151.170 E0.01232
G1 X24.941 Y150.982 E0.01230
G1 X25.299 Y150.864 E0.01183
G1 X25.972 Y150.714 E0.02161
G1 X26.322 Y150.670 E0.01106
G1 X26.678 Y150.670 E0.01116
G1 X27.028 Y150.714 E0.01106
G1 X27.701 Y150.864 E0.02161
G1 X28.060 Y150.982 E0.01185
G1 X28.404 Y151.174 E0.01237
G1 X28.701 Y151.439 E0.01247
G1 X28.934 Y151.761 E0.01246
G1 X29.088 Y152.121 E0.01230
G1 X29.313 Y153.145 E0.03285
G1 X29.334 Y153.475 E0.01038
G1 X29.316 Y153.797 E0.01012
M204 S1250
G1 X29.627 Y154.105 F9000.000
G1 E-2.24000 F4200.000
;WIPE_START
G1 F7200.000
G1 X29.089 Y154.877 E-0.61108
G1 X28.944 Y155.224 E-0.20881
G1 X28.849 Y155.361 E-0.09211
;WIPE_END
G1 E-0.04800 F4200.000
G1 Z0.400 F9000.000
G1 X24.462 Y156.219
G1 Z0.200
G1 E3.20000 F2400.000
M204 S800
;TYPE:Perimeter
G1 F1200.000
G1 X23.784 Y156.216 E0.02125
G1 X23.781 Y155.546 E0.02101
G1 X24.012 Y155.833 E0.01156
G1 X24.412 Y156.185 E0.01673
M204 S1250
G1 E-2.24000 F4200.000
;WIPE_START
G1 F7200.000
G1 X23.784 Y156.216 E-0.34849
G1 X23.781 Y155.546 E-0.37130
G1 X23.998 Y155.816 E-0.19221
;WIPE_END
G1 E-0.04800 F4200.000
G1 Z0.400 F9000.000
G1 X24.479 Y150.563
G1 Z0.200
G1 E3.20000 F2400.000
M204 S800
;TYPE:External perimeter
G1 F1200.000
G1 X24.410 Y149.711 E0.02681
G1 X24.390 Y148.703 E0.03160
G1 X24.393 Y30.796 E3.69692
M73 P1 R108
G1 X24.410 Y30.288 E0.01594
G1 X24.479 Y29.437 E0.02676
G1 X25.784 Y29.590 E0.04119
G1 X27.218 Y29.590 E0.04497
G1 X28.521 Y29.434 E0.04114
G1 X28.590 Y30.288 E0.02685
G1 X28.607 Y30.796 E0.01594
G1 X28.607 Y149.204 E3.71263
G1 X28.590 Y149.712 E0.01594
G1 X28.521 Y150.563 E0.02676
G1 X27.216 Y150.410 E0.04119
G1 X25.784 Y150.410 E0.04492
G1 X24.538 Y150.556 E0.03931
M204 S1250
G1 X24.080 Y150.592 F9000.000
G1 X24.250 Y150.970
M204 S800
;TYPE:Perimeter
G1 F1200.000
G1 X24.027 Y151.159 E0.00914
G1 X23.772 Y151.468 E0.01258
G1 X23.787 Y151.009 E0.01440
G1 X23.787 Y28.991 E3.82580
G1 X23.772 Y28.532 E0.01440
G1 X24.027 Y28.841 E0.01258
G1 X24.250 Y29.030 E0.00914
G1 X24.134 Y29.017 E0.00364
G1 X24.034 Y30.266 E0.03930
G1 X24.016 Y30.789 E0.01641
G1 X24.013 Y148.707 E3.69724
G1 X24.034 Y149.730 E0.03207
G1 X24.134 Y150.983 E0.03943
G1 X24.190 Y150.977 E0.00176
M204 S1250
G1 E-2.24000 F4200.000
;WIPE_START
G1 F7200.000
G1 X24.027 Y151.159 E-0.13520
G1 X23.772 Y151.468 E-0.22235
G1 X23.787 Y151.009 E-0.25447
G1 X23.787 Y150.468 E-0.29997
;WIPE_END
G1 E-0.04800 F4200.000
G1 Z0.400 F9000.000
G1 X23.781 Y24.454
G1 Z0.200
G1 E3.20000 F2400.000
M204 S800
G1 F1200.000
G1 X23.784 Y23.784 E0.02101
G1 X24.462 Y23.781 E0.02125
G1 X24.337 Y23.865 E0.00473
G1 X24.012 Y24.167 E0.01391
G1 X23.819 Y24.408 E0.00968
M204 S1250
G1 X23.855 Y25.067 F9000.000
M204 S800
;TYPE:External perimeter
G1 F1200.000
G1 X24.046 Y24.726 E0.01225
G1 X24.288 Y24.424 E0.01213
G1 X24.572 Y24.162 E0.01211
G1 X24.894 Y23.945 E0.01218
G1 X25.250 Y23.789 E0.01220
G1 X25.621 Y23.698 E0.01198
G1 X26.326 Y23.628 E0.02219
G1 X27.021 Y23.651 E0.02181
G1 X27.382 Y23.698 E0.01143
G1 X27.750 Y23.789 E0.01187
G1 X28.106 Y23.946 E0.01222
G1 X28.429 Y24.166 E0.01225
G1 X28.709 Y24.439 E0.01227
G1 X28.936 Y24.762 E0.01236
G1 X29.089 Y25.123 E0.01230
G1 X29.313 Y26.142 E0.03270
G1 X29.334 Y26.475 E0.01047
G1 X29.313 Y26.857 E0.01201
G1 X29.089 Y27.877 E0.03274
G1 X28.934 Y28.239 E0.01234
G1 X28.701 Y28.561 E0.01246
G1 X28.404 Y28.826 E0.01247
G1 X28.060 Y29.018 E0.01237
G1 X27.701 Y29.136 E0.01185
G1 X27.028 Y29.286 E0.02161
G1 X26.678 Y29.330 E0.01106
G1 X26.322 Y29.330 E0.01116
G1 X25.972 Y29.286 E0.01106
G1 X25.299 Y29.136 E0.02161
G1 X24.941 Y29.018 E0.01183
G1 X24.597 Y28.830 E0.01230
G1 X24.297 Y28.576 E0.01232
G1 X24.049 Y28.274 E0.01224
G1 X23.855 Y27.934 E0.01229
G1 X23.733 Y27.562 E0.01228
G1 X23.637 Y26.849 E0.02254
G1 X23.637 Y26.151 E0.02190
G1 X23.732 Y25.438 E0.02253
G1 X23.836 Y25.124 E0.01039
M204 S1250
G1 X23.622 Y24.753 F9000.000
G1 E-2.24000 F4200.000
;WIPE_START
G1 F7200.000
G1 X24.046 Y24.726 E-0.24921
G1 X24.288 Y24.424 E-0.21441
G1 X24.572 Y24.162 E-0.21403
G1 X24.894 Y23.945 E-0.21533
G1 X24.926 Y23.931 E-0.01901
;WIPE_END
G1 E-0.04800 F4200.000
G1 Z0.400 F9000.000
G1 X29.437 Y24.479
G1 Z0.200
G1 E3.20000 F2400.000
M204 S800
G1 F1200.000
G1 X30.287 Y24.411 E0.02674
G1 X31.798 Y24.390 E0.04737
G1 X149.204 Y24.393 E3.68120
G1 X149.713 Y24.411 E0.01594
G1 X150.563 Y24.479 E0.02674
G1 X150.410 Y25.784 E0.04117
G1 X150.410 Y27.216 E0.04492
G1 X150.563 Y28.521 E0.04117
G1 X149.711 Y28.589 E0.02679
G1 X148.703 Y28.610 E0.03160
G1 X30.795 Y28.607 E3.69693
M73 P1 R107
G1 X30.287 Y28.589 E0.01593
G1 X29.437 Y28.521 E0.02674
G1 X29.590 Y27.216 E0.04117
G1 X29.590 Y25.784 E0.04492
G1 X29.444 Y24.539 E0.03929
M204 S1250
G1 X29.408 Y24.081 F9000.000
G1 E-2.24000 F4200.000
;WIPE_START
G1 F7200.000
G1 X30.287 Y24.411 E-0.47264
G1 X31.080 Y24.400 E-0.43936
;WIPE_END
G1 E-0.04800 F4200.000
G1 Z0.400 F9000.000
G1 X155.538 Y23.781
G1 Z0.200
G1 E3.20000 F2400.000
M204 S800
;TYPE:Perimeter
G1 F1200.000
G1 X156.216 Y23.784 E0.02125
G1 X156.219 Y24.454 E0.02101
G1 X155.988 Y24.167 E0.01156
G1 X155.588 Y23.815 E0.01673
M204 S1250
G1 X155.106 Y23.945 F9000.000
M204 S800
;TYPE:External perimeter
G1 F1200.000
G1 X155.428 Y24.162 E0.01218
G1 X155.712 Y24.424 E0.01211
G1 X155.954 Y24.726 E0.01213
G1 X156.145 Y25.067 E0.01225
G1 X156.268 Y25.438 E0.01227
G1 X156.363 Y26.151 E0.02254
G1 X156.363 Y26.849 E0.02190
G1 X156.267 Y27.562 E0.02254
G1 X156.145 Y27.934 E0.01228
G1 X155.951 Y28.274 E0.01229
G1 X155.703 Y28.576 E0.01224
G1 X155.403 Y28.830 E0.01232
G1 X155.059 Y29.018 E0.01230
G1 X154.701 Y29.136 E0.01183
G1 X154.028 Y29.286 E0.02161
G1 X153.678 Y29.330 E0.01106
G1 X153.322 Y29.330 E0.01116
G1 X152.972 Y29.286 E0.01106
G1 X152.299 Y29.136 E0.02161
G1 X151.940 Y29.018 E0.01185
G1 X151.596 Y28.826 E0.01237
G1 X151.299 Y28.561 E0.01247
G1 X151.066 Y28.239 E0.01246
G1 X150.911 Y27.877 E0.01234
G1 X150.687 Y26.858 E0.03271
G1 X150.666 Y26.525 E0.01047
G1 X150.687 Y26.143 E0.01201
G1 X150.911 Y25.123 E0.03272
G1 X151.056 Y24.776 E0.01181
G1 X151.290 Y24.440 E0.01285
G1 X151.571 Y24.166 E0.01228
G1 X151.894 Y23.946 E0.01225
G1 X152.250 Y23.789 E0.01222
G1 X152.621 Y23.698 E0.01198
G1 X153.326 Y23.628 E0.02219
G1 X154.021 Y23.651 E0.02181
G1 X154.382 Y23.698 E0.01143
G1 X154.750 Y23.789 E0.01187
G1 X155.051 Y23.921 E0.01032
M204 S1250
G1 X155.439 Y23.744 F9000.000
G1 E-2.24000 F4200.000
;WIPE_START
G1 F7200.000
G1 X155.428 Y24.162 E-0.24812
G1 X155.712 Y24.424 E-0.21403
G1 X155.954 Y24.726 E-0.21442
G1 X156.145 Y25.067 E-0.21650
G1 X156.156 Y25.099 E-0.01893
;WIPE_END
G1 E-0.04800 F4200.000
G1 Z0.400 F9000.000
G1 X151.480 Y23.772
G1 Z0.200
G1 E3.20000 F2400.000
M204 S800
;TYPE:Perimeter
G1 F1200.000
G1 X151.331 Y23.873 E0.00564
G1 X150.970 Y24.239 E0.01611
G1 X150.983 Y24.135 E0.00328
G1 X149.734 Y24.034 E0.03927
G1 X149.211 Y24.016 E0.01642
G1 X31.797 Y24.013 E3.68142
G1 X30.266 Y24.034 E0.04803
G1 X29.017 Y24.135 E0.03927
G1 X29.030 Y24.239 E0.00328
G1 X28.669 Y23.873 E0.01611
G1 X28.534 Y23.781 E0.00512
G1 X151.009 Y23.787 E3.84013
G1 X151.420 Y23.774 E0.01289
M204 S1250
G1 E-2.24000 F4200.000
;WIPE_START
G1 F7200.000
G1 X151.331 Y23.873 E-0.07391
G1 X150.970 Y24.239 E-0.28471
G1 X150.983 Y24.135 E-0.05804
G1 X150.092 Y24.063 E-0.49534
;WIPE_END
G1 E-0.04800 F4200.000
G1 Z0.400 F9000.000
G1 X148.787 Y31.213
G1 Z0.200
G1 E3.20000 F2400.000
M204 S800
G1 F1200.000
G1 X148.787 Y148.787 E3.68646
G1 X31.213 Y148.787 E3.68646
G1 X31.213 Y31.213 E3.68646
M73 P2 R107
G1 X148.727 Y31.213 E3.68457
M204 S1250
G1 X148.410 Y31.590 F9000.000
M204 S800
;TYPE:External perimeter
G1 F1200.000
G1 X148.410 Y148.410 E3.66281
G1 X31.590 Y148.410 E3.66281
G1 X31.590 Y31.590 E3.66281
G1 X148.350 Y31.590 E3.66093
M204 S1250
M73 P2 R106
G1 X148.796 Y31.486 F9000.000
G1 E-2.24000 F4200.000
;WIPE_START
G1 F7200.000
G1 X148.351 Y33.236 E-0.91200
;WIPE_END
G1 E-0.04800 F4200.000
G1 Z0.400 F9000.000
G1 X150.983 Y28.865
G1 Z0.200
G1 E3.20000 F2400.000
M204 S800
;TYPE:Perimeter
G1 F1200.000
G1 X150.969 Y28.747 E0.00371
G1 X151.018 Y28.815 E0.00261
G1 X151.259 Y29.031 E0.01018
G1 X151.134 Y29.017 E0.00395
G1 X151.033 Y30.272 E0.03949
G1 X151.013 Y31.794 E0.04774
G1 X151.016 Y149.211 E3.68151
G1 X151.034 Y149.734 E0.01641
G1 X151.134 Y150.983 E0.03930
G1 X151.259 Y150.969 E0.00395
G1 X151.018 Y151.185 E0.01018
G1 X150.969 Y151.252 E0.00260
G1 X150.983 Y151.135 E0.00370
G1 X149.734 Y151.034 E0.03927
G1 X149.211 Y151.016 E0.01642
G1 X31.797 Y151.013 E3.68142
G1 X30.266 Y151.034 E0.04803
G1 X29.017 Y151.135 E0.03927
G1 X29.031 Y151.253 E0.00371
G1 X28.982 Y151.185 E0.00261
G1 X28.741 Y150.969 E0.01018
G1 X28.866 Y150.983 E0.00395
G1 X28.966 Y149.734 E0.03930
G1 X28.984 Y149.211 E0.01641
G1 X28.984 Y30.789 E3.71303
G1 X28.966 Y30.266 E0.01641
G1 X28.865 Y29.009 E0.03954
G1 X28.749 Y29.024 E0.00368
G1 X28.982 Y28.815 E0.00984
G1 X29.031 Y28.748 E0.00260
G1 X29.017 Y28.865 E0.00370
G1 X30.266 Y28.966 E0.03927
G1 X31.797 Y28.987 E0.04803
G1 X148.707 Y28.987 E3.66562
G1 X149.730 Y28.966 E0.03208
G1 X150.923 Y28.870 E0.03752
M204 S1250
G1 X151.479 Y29.437 F9000.000
M204 S800
;TYPE:External perimeter
G1 F1200.000
G1 X152.784 Y29.590 E0.04119
G1 X154.216 Y29.590 E0.04492
G1 X155.521 Y29.437 E0.04119
G1 X155.590 Y30.289 E0.02681
G1 X155.610 Y31.297 E0.03160
G1 X155.610 Y148.202 E3.66548
G1 X155.590 Y149.712 E0.04736
G1 X155.521 Y150.563 E0.02676
G1 X154.216 Y150.410 E0.04119
G1 X152.784 Y150.410 E0.04492
G1 X151.479 Y150.563 E0.04119
G1 X151.410 Y149.712 E0.02676
G1 X151.393 Y149.204 E0.01594
G1 X151.390 Y31.797 E3.68123
M73 P3 R106
G1 X151.410 Y30.290 E0.04726
G1 X151.474 Y29.497 E0.02495
M204 S1250
G1 X151.515 Y29.038 F9000.000
G1 E-2.24000 F4200.000
;WIPE_START
G1 F7200.000
G1 X152.784 Y29.590 E-0.72760
G1 X153.116 Y29.590 E-0.18440
;WIPE_END
G1 E-0.04800 F4200.000
G1 Z0.400 F9000.000
G1 X155.750 Y29.030
G1 Z0.200
G1 E3.20000 F2400.000
M204 S800
;TYPE:Perimeter
G1 F1200.000
G1 X155.973 Y28.841 E0.00914
G1 X156.228 Y28.532 E0.01258
G1 X156.213 Y28.991 E0.01440
G1 X156.213 Y151.009 E3.82580
G1 X156.228 Y151.468 E0.01440
G1 X155.973 Y151.159 E0.01258
G1 X155.750 Y150.970 E0.00914
G1 X155.866 Y150.983 E0.00364
G1 X155.966 Y149.734 E0.03930
G1 X155.987 Y148.203 E0.04802
G1 X155.987 Y31.293 E3.66562
G1 X155.966 Y30.270 E0.03207
G1 X155.866 Y29.017 E0.03943
G1 X155.810 Y29.023 E0.00176
M204 S1250
G1 E-2.24000 F4200.000
;WIPE_START
G1 F7200.000
G1 X155.973 Y28.841 E-0.13520
G1 X156.228 Y28.532 E-0.22235
G1 X156.213 Y28.991 E-0.25447
G1 X156.213 Y29.532 E-0.29998
;WIPE_END
G1 E-0.04800 F4200.000
G1 Z0.400 F9000.000
G1 X153.678 Y150.670
G1 Z0.200
G1 E3.20000 F2400.000
M204 S800
;TYPE:External perimeter
G1 F1200.000
G1 X154.028 Y150.714 E0.01106
G1 X154.701 Y150.864 E0.02161
G1 X155.059 Y150.982 E0.01183
G1 X155.403 Y151.170 E0.01230
G1 X155.703 Y151.424 E0.01232
G1 X155.951 Y151.726 E0.01224
G1 X156.145 Y152.066 E0.01229
G1 X156.267 Y152.438 E0.01228
G1 X156.363 Y153.151 E0.02254
G1 X156.363 Y153.849 E0.02190
G1 X156.268 Y154.562 E0.02253
G1 X156.145 Y154.933 E0.01227
G1 X155.954 Y155.274 E0.01225
G1 X155.712 Y155.576 E0.01213
G1 X155.428 Y155.838 E0.01211
G1 X155.106 Y156.055 E0.01218
G1 X154.750 Y156.211 E0.01220
G1 X154.379 Y156.302 E0.01198
G1 X153.674 Y156.372 E0.02219
G1 X152.979 Y156.349 E0.02181
G1 X152.618 Y156.302 E0.01143
G1 X152.250 Y156.211 E0.01187
G1 X151.894 Y156.054 E0.01222
G1 X151.571 Y155.834 E0.01225
G1 X151.291 Y155.561 E0.01227
G1 X151.064 Y155.238 E0.01236
G1 X150.911 Y154.878 E0.01226
G1 X150.687 Y153.855 E0.03284
G1 X150.665 Y153.500 E0.01116
G1 X150.687 Y153.145 E0.01116
G1 X150.912 Y152.121 E0.03285
G1 X151.066 Y151.761 E0.01230
G1 X151.299 Y151.439 E0.01246
G1 X151.596 Y151.174 E0.01247
G1 X151.940 Y150.982 E0.01237
G1 X152.299 Y150.864 E0.01185
G1 X152.972 Y150.714 E0.02161
G1 X153.322 Y150.670 E0.01106
G1 X153.618 Y150.670 E0.00928
M204 S1250
G1 X153.873 Y150.376 F9000.000
G1 E-2.24000 F4200.000
;WIPE_START
G1 F7200.000
G1 X154.028 Y150.714 E-0.22847
G1 X154.701 Y150.864 E-0.38189
G1 X155.059 Y150.982 E-0.20907
G1 X155.206 Y151.062 E-0.09257
;WIPE_END
G1 E-0.04800 F4200.000
G1 Z0.400 F9000.000
G1 X150.970 Y155.761
G1 Z0.200
G1 E3.20000 F2400.000
