; generated by PrusaSlicer 2.3.3+win64 on 2021-08-22 at 19:05:38 UTC


;
;

;
;
; 

; external perimeters extrusion width = 0.45mm
; perimeters extrusion width = 0.45mm
; infill extrusion width = 0.45mm
; solid infill extrusion width = 0.45mm
; top infill extrusion width = 0.40mm
; first layer extrusion width = 0.42mm

M73 P0 R109
M201 X1250 Y1250 Z400 E5000 ; sets maximum accelerations, mm/sec^2
M203 X180 Y180 Z12 E80 ; sets maximum feedrates, mm/sec
M204 P1250 R1250 T1250 ; sets acceleration (P, T) and retract acceleration (R), mm/sec^2
M205 X8.00 Y8.00 Z2.00 E10.00 ; sets the jerk limits, mm/sec
M205 S0 T0 ; sets the minimum extruding and travel feed rate, mm/sec
M107
;TYPE:Custom
G90 ; use absolute coordinates
M83 ; extruder relative mode
M104 S170 ; set extruder temp for bed leveling
M140 S60 ; set bed temp
M109 R170 ; wait for bed leveling temp
M190 S60 ; wait for bed temp
G28 ; home all without mesh bed level
G29 ; mesh bed leveling 
M104 S215 ; set extruder temp
G92 E0.0
G1 Y-2.0 X179 F2400
G1 Z3 F720
M109 S215 ; wait for extruder temp

; intro line
G1 X170 F1000
G1 Z0.2 F720
G1 X110.0 E8.0 F900
G1 X40.0 E10.0 F700
G92 E0.0

M221 S95 ; set flow
G21 ; set units to millimeters
G90 ; use absolute coordinates
M83 ; use relative distances for extrusion
M900 K0.2 ; Filament gcode LA 1.5
; ; Filament gcode LA 1.0
;LAYER_CHANGE
;Z:0.2
;HEIGHT:0.2
;BEFORE_LAYER_CHANGE
G92 E0.0
;0.2


G1 E-3.20000 F4200.000
G1 Z0.200 F9000.000
;AFTER_LAYER_CHANGE
;0.2
G1 Z0.400
G1 X21.305 Y21.333
G1 Z0.200
G1 E3.20000 F2400.000
M204 S800
;TYPE:Skirt
;WIDTH:0.42
G1 F1200.000
G1 X22.076 Y20.810 E0.02919
G1 X22.987 Y20.623 E0.02919
G1 X157.004 Y20.623 E4.20199
G1 X157.906 Y20.802 E0.02884
G1 X158.672 Y21.311 E0.02884
G1 X159.188 Y22.072 E0.02884
G1 X159.377 Y22.972 E0.02884
G1 X159.377 Y157.011 E4.20270
G1 X159.198 Y157.906 E0.02860
G1 X158.695 Y158.667 E0.02860
G1 X157.917 Y159.193 E0.02942
G1 X157.000 Y159.377 E0.02934
G1 X22.989 Y159.377 E4.20183
G1 X22.094 Y159.198 E0.02860
G1 X21.333 Y158.695 E0.02860
G1 X20.807 Y157.917 E0.02942
G1 X20.623 Y157.000 E0.02934
G1 X20.623 Y22.989 E4.20183
G1 X20.802 Y22.094 E0.02860
G1 X21.272 Y21.383 E0.02672
M204 S1250
; printing object top.stl id:0 copy 0
G1 E-2.24000 F4200.000
;WIPE_START
G1 F7200.000
G1 X22.076 Y20.810 E-0.54680
G1 X22.721 Y20.678 E-0.36520
;WIPE_END
G1 E-0.04800 F4200.000
G1 Z0.400 F9000.000
G1 X150.543 Y151.514
G1 Z0.200
G1 E3.20000 F2400.000
M204 S800
;TYPE:External perimeter
G1 F1200.000
G1 X150.421 Y152.302 E0.02502
G1 X150.410 Y154.227 E0.06034
G1 X150.421 Y154.696 E0.01471
G1 X150.543 Y155.486 E0.02507
G1 X149.715 Y155.579 E0.02610
G1 X148.704 Y155.610 E0.03171
G1 X31.798 Y155.610 E3.66553
G1 X30.793 Y155.605 E0.03150
G1 X30.282 Y155.579 E0.01604
G1 X29.457 Y155.486 E0.02603
G1 X29.579 Y154.698 E0.02502
G1 X29.590 Y152.773 E0.06034
G1 X29.579 Y152.304 E0.01471
G1 X29.457 Y151.514 E0.02507
G1 X30.282 Y151.421 E0.02603
G1 X30.793 Y151.395 E0.01604
G1 X149.206 Y151.395 E3.71276
M73 P0 R108
G1 X149.718 Y151.421 E0.01605
G1 X150.483 Y151.507 E0.02415
M204 S1250
G1 X150.939 Y151.566 F9000.000
G1 E-2.24000 F4200.000
;WIPE_START
G1 F7200.000
G1 X150.421 Y152.302 E-0.44201
G1 X150.416 Y153.151 E-0.46999
;WIPE_END
G1 E-0.04800 F4200.000
G1 Z0.400 F9000.000
G1 X29.410 Y153.500
G1 Z0.200
G1 E3.20000 F2400.000
M204 S800
G1 F1200.000
G1 X29.387 Y153.865 E0.01146
G1 X29.320 Y154.220 E0.01134
G1 X29.125 Y154.901 E0.02222
G1 X28.982 Y155.264 E0.01223
G1 X28.761 Y155.603 E0.01268
G1 X28.474 Y155.888 E0.01269
G1 X28.137 Y156.112 E0.01269
G1 X27.765 Y156.259 E0.01254
G1 X27.391 Y156.339 E0.01198
G1 X27.028 Y156.387 E0.01149
G1 X26.323 Y156.409 E0.02209
G1 X25.612 Y156.340 E0.02240
G1 X25.237 Y156.259 E0.01205
G1 X24.898 Y156.130 E0.01136
G1 X24.527 Y155.896 E0.01377
G1 X24.223 Y155.609 E0.01310
G1 X23.990 Y155.308 E0.01195
G1 X23.807 Y154.952 E0.01255
G1 X23.694 Y154.573 E0.01238
G1 X23.599 Y153.847 E0.02296
G1 X23.599 Y153.150 E0.02187
G1 X23.634 Y152.790 E0.01133
G1 X23.695 Y152.423 E0.01167
G1 X23.807 Y152.048 E0.01228
G1 X23.992 Y151.691 E0.01260
G1 X24.246 Y151.377 E0.01267
G1 X24.558 Y151.116 E0.01274
G1 X24.919 Y150.933 E0.01270
G1 X25.952 Y150.641 E0.03366
G1 X26.317 Y150.595 E0.01154
G1 X26.683 Y150.595 E0.01146
G1 X27.048 Y150.641 E0.01154
G1 X28.082 Y150.934 E0.03368
G1 X28.443 Y151.122 E0.01278
G1 X28.750 Y151.397 E0.01292
G1 X28.979 Y151.735 E0.01280
G1 X29.125 Y152.098 E0.01227
G1 X29.320 Y152.780 E0.02223
G1 X29.387 Y153.135 E0.01134
G1 X29.407 Y153.440 E0.00958
M204 S1250
G1 X29.727 Y153.683 F9000.000
G1 E-2.24000 F4200.000
;WIPE_START
G1 F7200.000
G1 X29.387 Y153.865 E-0.23557
G1 X29.320 Y154.220 E-0.20044
G1 X29.125 Y154.901 E-0.39264
G1 X29.070 Y155.041 E-0.08336
;WIPE_END
G1 E-0.04800 F4200.000
G1 Z0.400 F9000.000
G1 X24.346 Y156.227
G1 Z0.200
G1 E3.20000 F2400.000
M204 S800
;TYPE:Perimeter
G1 F1200.000
G1 X23.780 Y156.220 E0.01776
G1 X23.772 Y155.643 E0.01810
G1 X23.943 Y155.863 E0.00873
G1 X24.295 Y156.195 E0.01519
M204 S1250
G1 E-2.24000 F4200.000
;WIPE_START
G1 F7200.000
G1 X23.780 Y156.220 E-0.28616
G1 X23.772 Y155.643 E-0.31997
G1 X23.943 Y155.863 E-0.15437
G1 X24.142 Y156.051 E-0.15150
;WIPE_END
G1 E-0.04800 F4200.000
G1 Z0.400 F9000.000
G1 X24.513 Y150.543
G1 Z0.200
G1 E3.20000 F2400.000
M204 S800
;TYPE:External perimeter
G1 F1200.000
G1 X24.421 Y149.715 E0.02612
G1 X24.390 Y148.704 E0.03171
G1 X24.395 Y30.794 E3.69701
M73 P1 R108
G1 X24.421 Y30.283 E0.01605
G1 X24.513 Y29.457 E0.02605
G1 X25.302 Y29.578 E0.02501
G1 X27.698 Y29.578 E0.07514
G1 X28.487 Y29.457 E0.02501
G1 X28.579 Y30.285 E0.02612
G1 X28.610 Y31.296 E0.03171
G1 X28.605 Y149.206 E3.69701
G1 X28.579 Y149.717 E0.01605
G1 X28.487 Y150.543 E0.02605
G1 X27.698 Y150.422 E0.02503
G1 X25.773 Y150.410 E0.06033
G1 X25.304 Y150.421 E0.01471
G1 X24.573 Y150.534 E0.02321
M204 S1250
G1 X24.116 Y150.587 F9000.000
G1 X24.178 Y150.942
M204 S800
;TYPE:Perimeter
G1 F1200.000
G1 X23.976 Y151.111 E0.00828
G1 X23.773 Y151.363 E0.01014
G1 X23.787 Y150.505 E0.02690
G1 X23.787 Y29.495 E3.79417
G1 X23.773 Y28.637 E0.02690
G1 X23.963 Y28.874 E0.00951
G1 X24.179 Y29.057 E0.00886
G1 X24.045 Y30.252 E0.03770
G1 X24.018 Y30.784 E0.01671
G1 X24.013 Y148.710 E3.69749
G1 X24.045 Y149.742 E0.03236
G1 X24.172 Y150.882 E0.03597
M204 S1250
G1 E-2.24000 F4200.000
;WIPE_START
G1 F7200.000
G1 X23.976 Y151.111 E-0.16693
G1 X23.773 Y151.363 E-0.17921
G1 X23.787 Y150.505 E-0.47548
G1 X23.787 Y150.342 E-0.09037
;WIPE_END
G1 E-0.04800 F4200.000
G1 Z0.400 F9000.000
G1 X23.772 Y24.357
G1 Z0.200
G1 E3.20000 F2400.000
M204 S800
G1 F1200.000
G1 X23.780 Y23.780 E0.01812
G1 X24.348 Y23.773 E0.01782
G1 X23.956 Y24.121 E0.01644
G1 X23.809 Y24.310 E0.00751
M204 S1250
G1 X23.990 Y24.692 F9000.000
M204 S800
;TYPE:External perimeter
G1 F1200.000
G1 X24.235 Y24.376 E0.01253
G1 X24.527 Y24.106 E0.01250
G1 X24.864 Y23.887 E0.01259
G1 X25.236 Y23.741 E0.01251
G1 X25.612 Y23.660 E0.01208
G1 X26.323 Y23.591 E0.02240
G1 X27.028 Y23.613 E0.02209
G1 X27.391 Y23.661 E0.01149
G1 X27.765 Y23.741 E0.01198
G1 X28.137 Y23.888 E0.01254
G1 X28.474 Y24.112 E0.01269
G1 X28.761 Y24.397 E0.01269
G1 X28.982 Y24.736 E0.01268
G1 X29.125 Y25.099 E0.01223
G1 X29.320 Y25.780 E0.02222
G1 X29.387 Y26.135 E0.01134
G1 X29.410 Y26.500 E0.01146
G1 X29.387 Y26.865 E0.01146
G1 X29.320 Y27.220 E0.01134
G1 X29.125 Y27.902 E0.02223
G1 X28.979 Y28.265 E0.01227
G1 X28.750 Y28.603 E0.01280
G1 X28.443 Y28.878 E0.01292
G1 X28.082 Y29.066 E0.01278
G1 X27.048 Y29.359 E0.03368
G1 X26.683 Y29.405 E0.01154
G1 X26.317 Y29.405 E0.01146
G1 X25.952 Y29.359 E0.01154
G1 X24.919 Y29.067 E0.03366
G1 X24.557 Y28.883 E0.01272
G1 X24.234 Y28.610 E0.01327
G1 X23.992 Y28.309 E0.01210
G1 X23.807 Y27.952 E0.01260
G1 X23.694 Y27.574 E0.01239
G1 X23.599 Y26.854 E0.02276
G1 X23.599 Y26.146 E0.02218
G1 X23.694 Y25.427 E0.02276
G1 X23.807 Y25.048 E0.01238
G1 X23.962 Y24.746 E0.01067
M204 S1250
G1 X23.805 Y24.338 F9000.000
G1 E-2.24000 F4200.000
;WIPE_START
G1 F7200.000
G1 X24.235 Y24.376 E-0.25424
G1 X24.527 Y24.106 E-0.22091
G1 X24.864 Y23.887 E-0.22257
G1 X25.224 Y23.745 E-0.21428
;WIPE_END
G1 E-0.04800 F4200.000
G1 Z0.400 F9000.000
G1 X28.643 Y23.772
G1 Z0.200
G1 E3.20000 F2400.000
M204 S800
;TYPE:Perimeter
G1 F1200.000
G1 X29.997 Y23.787 E0.04244
G1 X150.505 Y23.787 E3.77845
G1 X151.356 Y23.773 E0.02668
G1 X151.287 Y23.819 E0.00258
G1 X150.932 Y24.178 E0.01584
G1 X149.748 Y24.046 E0.03735
G1 X149.216 Y24.018 E0.01671
G1 X31.797 Y24.013 E3.68160
G1 X30.782 Y24.018 E0.03181
G1 X30.252 Y24.046 E0.01667
G1 X29.068 Y24.178 E0.03735
G1 X28.693 Y23.805 E0.01657
M204 S1250
G1 X29.457 Y24.514 F9000.000
M204 S800
;TYPE:External perimeter
G1 F1200.000
G1 X30.282 Y24.421 E0.02603
G1 X30.793 Y24.395 E0.01604
G1 X31.798 Y24.390 E0.03150
G1 X149.206 Y24.395 E3.68126
G1 X149.718 Y24.421 E0.01605
G1 X150.543 Y24.514 E0.02603
G1 X150.421 Y25.302 E0.02502
G1 X150.410 Y27.227 E0.06034
G1 X150.421 Y27.696 E0.01471
G1 X150.543 Y28.486 E0.02507
G1 X149.715 Y28.579 E0.02610
G1 X148.704 Y28.610 E0.03171
G1 X30.793 Y28.605 E3.69702
G1 X30.282 Y28.579 E0.01604
G1 X29.457 Y28.486 E0.02603
G1 X29.579 Y27.698 E0.02502
G1 X29.590 Y25.773 E0.06034
G1 X29.579 Y25.304 E0.01471
G1 X29.466 Y24.573 E0.02319
M204 S1250
G1 X29.414 Y24.116 F9000.000
G1 E-2.24000 F4200.000
;WIPE_START
G1 F7200.000
G1 X30.282 Y24.421 E-0.45995
G1 X30.793 Y24.395 E-0.28343
G1 X31.097 Y24.393 E-0.16862
;WIPE_END
G1 E-0.04800 F4200.000
G1 Z0.400 F9000.000
G1 X155.654 Y23.773
M73 P1 R107
G1 Z0.200
G1 E3.20000 F2400.000
M204 S800
;TYPE:Perimeter
G1 F1200.000
G1 X156.220 Y23.780 E0.01776
G1 X156.228 Y24.357 E0.01811
G1 X156.045 Y24.121 E0.00936
G1 X155.704 Y23.805 E0.01457
M204 S1250
G1 X155.473 Y24.105 F9000.000
M204 S800
;TYPE:External perimeter
G1 F1200.000
G1 X155.766 Y24.376 E0.01251
G1 X156.010 Y24.692 E0.01252
G1 X156.193 Y25.048 E0.01255
G1 X156.306 Y25.427 E0.01238
G1 X156.401 Y26.146 E0.02276
G1 X156.401 Y26.854 E0.02218
G1 X156.306 Y27.574 E0.02276
G1 X156.193 Y27.952 E0.01239
G1 X156.008 Y28.309 E0.01260
G1 X155.754 Y28.623 E0.01267
G1 X155.442 Y28.884 E0.01274
G1 X155.081 Y29.067 E0.01270
G1 X154.048 Y29.359 E0.03366
G1 X153.683 Y29.405 E0.01154
G1 X153.317 Y29.405 E0.01146
G1 X152.952 Y29.359 E0.01154
G1 X151.918 Y29.066 E0.03368
G1 X151.557 Y28.878 E0.01278
G1 X151.250 Y28.603 E0.01292
G1 X151.021 Y28.265 E0.01280
G1 X150.875 Y27.902 E0.01227
G1 X150.680 Y27.220 E0.02223
G1 X150.613 Y26.865 E0.01134
G1 X150.590 Y26.500 E0.01146
G1 X150.613 Y26.135 E0.01146
G1 X150.680 Y25.780 E0.01134
G1 X150.875 Y25.099 E0.02222
G1 X151.018 Y24.736 E0.01223
G1 X151.239 Y24.397 E0.01268
G1 X151.526 Y24.112 E0.01269
G1 X151.863 Y23.888 E0.01269
G1 X152.235 Y23.741 E0.01254
G1 X152.612 Y23.660 E0.01209
G1 X153.323 Y23.591 E0.02240
G1 X154.028 Y23.613 E0.02209
G1 X154.391 Y23.661 E0.01149
G1 X154.764 Y23.741 E0.01197
G1 X155.136 Y23.887 E0.01251
G1 X155.423 Y24.072 E0.01072
M204 S1250
G1 X155.842 Y23.953 F9000.000
G1 E-2.24000 F4200.000
;WIPE_START
G1 F7200.000
G1 X155.766 Y24.376 E-0.25391
G1 X156.010 Y24.692 E-0.22137
G1 X156.193 Y25.048 E-0.22185
G1 X156.304 Y25.420 E-0.21488
;WIPE_END
G1 E-0.04800 F4200.000
G1 Z0.400 F9000.000
G1 X148.787 Y31.213
G1 Z0.200
G1 E3.20000 F2400.000
M204 S800
;TYPE:Perimeter
G1 F1200.000
G1 X148.787 Y148.787 E3.68646
G1 X31.213 Y148.787 E3.68646
G1 X31.213 Y31.213 E3.68646
M73 P2 R107
G1 X148.727 Y31.213 E3.68457
M204 S1250
G1 X148.410 Y31.590 F9000.000
M204 S800
;TYPE:External perimeter
G1 F1200.000
G1 X148.410 Y148.410 E3.66281
G1 X31.590 Y148.410 E3.66281
G1 X31.590 Y31.590 E3.66281
G1 X148.350 Y31.590 E3.66093
M204 S1250
G1 X148.796 Y31.486 F9000.000
G1 E-2.24000 F4200.000
;WIPE_START
G1 F7200.000
G1 X148.351 Y33.236 E-0.91200
;WIPE_END
G1 E-0.04800 F4200.000
G1 Z0.400 F9000.000
G1 X151.180 Y29.046
G1 Z0.200
G1 E3.20000 F2400.000
M204 S800
;TYPE:Perimeter
G1 F1200.000
G1 X151.045 Y30.252 E0.03804
G1 X151.018 Y30.784 E0.01671
G1 X151.013 Y148.710 E3.69749
G1 X151.045 Y149.742 E0.03236
G1 X151.180 Y150.955 E0.03827
G1 X150.940 Y151.179 E0.01028
G1 X149.748 Y151.046 E0.03760
G1 X149.216 Y151.018 E0.01671
G1 X31.797 Y151.013 E3.68160
M73 P2 R106
G1 X30.782 Y151.018 E0.03181
G1 X30.252 Y151.046 E0.01667
G1 X29.058 Y151.179 E0.03766
G1 X28.820 Y150.954 E0.01026
G1 X28.955 Y149.748 E0.03804
G1 X28.982 Y149.216 E0.01671
G1 X28.987 Y31.290 E3.69749
G1 X28.955 Y30.258 E0.03236
G1 X28.820 Y29.046 E0.03824
G1 X29.058 Y28.821 E0.01026
G1 X30.252 Y28.954 E0.03766
G1 X30.782 Y28.982 E0.01667
G1 X31.797 Y28.987 E0.03181
G1 X148.710 Y28.987 E3.66574
G1 X149.742 Y28.955 E0.03237
G1 X150.942 Y28.821 E0.03786
G1 X151.135 Y29.006 E0.00838
M204 S1250
G1 X151.513 Y29.457 F9000.000
M204 S800
;TYPE:External perimeter
G1 F1200.000
G1 X152.302 Y29.578 E0.02501
G1 X154.698 Y29.578 E0.07514
G1 X155.487 Y29.457 E0.02501
G1 X155.579 Y30.285 E0.02612
G1 X155.610 Y31.296 E0.03171
G1 X155.605 Y149.206 E3.69701
G1 X155.579 Y149.717 E0.01605
G1 X155.487 Y150.543 E0.02605
G1 X154.698 Y150.422 E0.02503
G1 X152.773 Y150.410 E0.06033
G1 X152.304 Y150.421 E0.01471
G1 X151.513 Y150.543 E0.02509
G1 X151.421 Y149.715 E0.02612
G1 X151.390 Y148.704 E0.03171
G1 X151.395 Y30.794 E3.69701
M73 P3 R106
G1 X151.421 Y30.283 E0.01605
G1 X151.507 Y29.517 E0.02416
M204 S1250
G1 X151.566 Y29.060 F9000.000
G1 E-2.24000 F4200.000
;WIPE_START
G1 F7200.000
G1 X152.302 Y29.578 E-0.44194
G1 X153.150 Y29.578 E-0.47006
;WIPE_END
G1 E-0.04800 F4200.000
G1 Z0.400 F9000.000
G1 X155.822 Y29.058
G1 Z0.200
G1 E3.20000 F2400.000
M204 S800
;TYPE:Perimeter
G1 F1200.000
G1 X156.024 Y28.889 E0.00828
G1 X156.227 Y28.637 E0.01014
G1 X156.213 Y29.495 E0.02690
G1 X156.213 Y150.505 E3.79417
G1 X156.227 Y151.363 E0.02690
G1 X156.024 Y151.111 E0.01014
G1 X155.822 Y150.942 E0.00828
G1 X155.955 Y149.748 E0.03766
G1 X155.982 Y149.216 E0.01671
G1 X155.987 Y31.290 E3.69749
G1 X155.955 Y30.258 E0.03236
G1 X155.828 Y29.118 E0.03597
M204 S1250
G1 E-2.24000 F4200.000
;WIPE_START
G1 F7200.000
G1 X156.024 Y28.889 E-0.16693
G1 X156.227 Y28.637 E-0.17921
G1 X156.213 Y29.495 E-0.47548
G1 X156.213 Y29.658 E-0.09038
;WIPE_END
G1 E-0.04800 F4200.000
G1 Z0.400 F9000.000
G1 X151.556 Y151.123
G1 Z0.200
G1 E3.20000 F2400.000
M204 S800
;TYPE:External perimeter
G1 F1200.000
G1 X151.918 Y150.934 E0.01280
G1 X152.952 Y150.641 E0.03368
G1 X153.317 Y150.595 E0.01154
G1 X153.683 Y150.595 E0.01146
G1 X154.048 Y150.641 E0.01154
G1 X155.081 Y150.933 E0.03366
G1 X155.442 Y151.116 E0.01270
G1 X155.754 Y151.377 E0.01274
G1 X156.008 Y151.691 E0.01267
G1 X156.193 Y152.048 E0.01260
G1 X156.306 Y152.426 E0.01239
G1 X156.401 Y153.146 E0.02276
G1 X156.401 Y153.854 E0.02218
G1 X156.306 Y154.573 E0.02276
G1 X156.193 Y154.952 E0.01238
G1 X156.010 Y155.308 E0.01255
G1 X155.765 Y155.624 E0.01253
G1 X155.473 Y155.894 E0.01250
G1 X155.136 Y156.113 E0.01259
G1 X154.764 Y156.259 E0.01251
G1 X154.391 Y156.339 E0.01197
G1 X154.028 Y156.387 E0.01149
G1 X153.323 Y156.409 E0.02209
G1 X152.612 Y156.340 E0.02240
G1 X152.235 Y156.259 E0.01209
G1 X151.863 Y156.112 E0.01254
G1 X151.526 Y155.888 E0.01269
G1 X151.239 Y155.603 E0.01269
G1 X151.018 Y155.264 E0.01268
G1 X150.875 Y154.901 E0.01223
G1 X150.680 Y154.220 E0.02222
G1 X150.613 Y153.865 E0.01134
G1 X150.590 Y153.500 E0.01146
G1 X150.613 Y153.135 E0.01146
G1 X150.680 Y152.780 E0.01134
G1 X150.875 Y152.098 E0.02223
G1 X151.020 Y151.735 E0.01226
G1 X151.239 Y151.410 E0.01228
G1 X151.512 Y151.163 E0.01155
M204 S1250
G1 X151.524 Y150.724 F9000.000
G1 E-2.24000 F4200.000
;WIPE_START
G1 F7200.000
G1 X151.918 Y150.934 E-0.25857
G1 X152.952 Y150.641 E-0.59536
G1 X153.056 Y150.628 E-0.05807
;WIPE_END
G1 E-0.04800 F4200.000
G1 Z0.400 F9000.000
G1 X151.287 Y156.181
G1 Z0.200
G1 E3.20000 F2400.000
M204 S800
;TYPE:Perimeter
G1 F1200.000
G1 X151.356 Y156.227 E0.00258
G1 X150.505 Y156.213 E0.02668
G1 X29.495 Y156.213 E3.79417
G1 X28.644 Y156.227 E0.02668
G1 X28.713 Y156.181 E0.00258
G1 X29.068 Y155.822 E0.01584
G1 X30.252 Y155.954 E0.03735
G1 X30.782 Y155.982 E0.01667
G1 X31.797 Y155.987 E0.03181
G1 X148.710 Y155.987 E3.66574
G1 X149.742 Y155.955 E0.03237
G1 X150.932 Y155.822 E0.03754
G1 X151.244 Y156.139 E0.01396
M204 S1250
