; generated by PrusaSlicer 2.3.3+win64 on 2021-08-22 at 03:42:21 UTC


;
;

;
;
; 

; external perimeters extrusion width = 0.45mm
; perimeters extrusion width = 0.45mm
; infill extrusion width = 0.45mm
; solid infill extrusion width = 0.45mm
; top infill extrusion width = 0.40mm
; first layer extrusion width = 0.42mm

M73 P0 R77
M201 X1250 Y1250 Z400 E5000 ; sets maximum accelerations, mm/sec^2
M203 X180 Y180 Z12 E80 ; sets maximum feedrates, mm/sec
M204 P1250 R1250 T1250 ; sets acceleration (P, T) and retract acceleration (R), mm/sec^2
M205 X8.00 Y8.00 Z2.00 E10.00 ; sets the jerk limits, mm/sec
M205 S0 T0 ; sets the minimum extruding and travel feed rate, mm/sec
M107
;TYPE:Custom
G90 ; use absolute coordinates
M83 ; extruder relative mode
M104 S170 ; set extruder temp for bed leveling
M140 S60 ; set bed temp
M109 R170 ; wait for bed leveling temp
M190 S60 ; wait for bed temp
G28 ; home all without mesh bed level
G29 ; mesh bed leveling 
M104 S215 ; set extruder temp
G92 E0.0
G1 Y-2.0 X179 F2400
G1 Z3 F720
M109 S215 ; wait for extruder temp

; intro line
G1 X170 F1000
G1 Z0.2 F720
G1 X110.0 E8.0 F900
G1 X40.0 E10.0 F700
G92 E0.0

M221 S95 ; set flow
G21 ; set units to millimeters
G90 ; use absolute coordinates
M83 ; use relative distances for extrusion
M900 K0.2 ; Filament gcode LA 1.5
; ; Filament gcode LA 1.0
;LAYER_CHANGE
;Z:0.2
;HEIGHT:0.2
;BEFORE_LAYER_CHANGE
G92 E0.0
;0.2


G1 E-3.20000 F4200.000
G1 Z0.200 F9000.000
;AFTER_LAYER_CHANGE
;0.2
G1 Z0.400
G1 X21.305 Y21.333
G1 Z0.200
G1 E3.20000 F2400.000
M204 S800
;TYPE:Skirt
;WIDTH:0.42
G1 F1200.000
G1 X22.076 Y20.810 E0.02919
G1 X22.987 Y20.623 E0.02919
G1 X157.004 Y20.623 E4.20199
G1 X157.906 Y20.802 E0.02884
G1 X158.672 Y21.311 E0.02884
G1 X159.188 Y22.072 E0.02884
G1 X159.377 Y22.972 E0.02884
G1 X159.377 Y157.011 E4.20270
M73 P0 R76
G1 X159.198 Y157.906 E0.02860
G1 X158.695 Y158.667 E0.02860
G1 X157.917 Y159.193 E0.02942
G1 X157.000 Y159.377 E0.02934
G1 X22.989 Y159.377 E4.20183
G1 X22.094 Y159.198 E0.02860
G1 X21.333 Y158.695 E0.02860
G1 X20.807 Y157.917 E0.02942
G1 X20.623 Y157.000 E0.02934
G1 X20.623 Y22.989 E4.20183
G1 X20.802 Y22.094 E0.02860
G1 X21.272 Y21.383 E0.02672
M204 S1250
; printing object topCover.stl id:0 copy 0
G1 E-2.24000 F4200.000
;WIPE_START
G1 F7200.000
G1 X22.076 Y20.810 E-0.54680
G1 X22.721 Y20.678 E-0.36520
;WIPE_END
G1 E-0.04800 F4200.000
G1 Z0.400 F9000.000
G1 X31.213 Y31.213
G1 Z0.200
G1 E3.20000 F2400.000
M204 S800
;TYPE:Perimeter
G1 F1200.000
G1 X148.787 Y31.213 E3.68646
M73 P1 R76
G1 X148.787 Y148.787 E3.68646
G1 X31.213 Y148.787 E3.68646
G1 X31.213 Y31.273 E3.68457
M204 S1250
G1 X31.590 Y31.590 F9000.000
M204 S800
;TYPE:External perimeter
G1 F1200.000
G1 X148.410 Y31.590 E3.66281
G1 X148.410 Y148.410 E3.66281
G1 X31.590 Y148.410 E3.66281
G1 X31.590 Y31.650 E3.66093
M204 S1250
M73 P1 R75
G1 X31.486 Y31.204 F9000.000
G1 E-2.24000 F4200.000
;WIPE_START
G1 F7200.000
G1 X33.236 Y31.649 E-0.91200
;WIPE_END
G1 E-0.04800 F4200.000
G1 Z0.400 F9000.000
G1 X23.787 Y23.787
G1 Z0.200
G1 E3.20000 F2400.000
M204 S800
;TYPE:Perimeter
G1 F1200.000
G1 X156.213 Y23.787 E4.15212
M73 P2 R75
G1 X156.213 Y156.213 E4.15212
G1 X23.787 Y156.213 E4.15212
G1 X23.787 Y23.847 E4.15024
M204 S1250
G1 X23.410 Y23.410 F9000.000
M204 S800
;TYPE:External perimeter
G1 F1200.000
G1 X156.590 Y23.410 E4.17577
G1 X156.590 Y156.590 E4.17577
G1 X23.410 Y156.590 E4.17577
G1 X23.410 Y23.470 E4.17388
M204 S1250
M73 P3 R75
G1 X23.796 Y23.514 F9000.000
G1 E-2.24000 F4200.000
;WIPE_START
G1 F7200.000
G1 X25.056 Y23.469 E-0.91200
;WIPE_END
G1 E-0.04800 F4200.000
G1 Z0.400 F9000.000
G1 X155.336 Y23.900
G1 Z0.200
G1 E3.20000 F2400.000
M204 S800
;TYPE:Solid infill
;WIDTH:0.420721
G1 F1200.000
G1 X155.930 Y24.494 E0.02639
G1 X155.930 Y25.029 E0.01678
G1 X154.971 Y24.070 E0.04259
G1 X154.437 Y24.070 E0.01678
G1 X155.930 Y25.563 E0.06633
G1 X155.930 Y26.097 E0.01678
G1 X153.903 Y24.070 E0.09007
G1 X153.369 Y24.070 E0.01678
G1 X155.930 Y26.631 E0.11380
G1 X155.930 Y27.166 E0.01678
G1 X152.834 Y24.070 E0.13754
G1 X152.300 Y24.070 E0.01678
G1 X155.930 Y27.700 E0.16128
G1 X155.930 Y28.234 E0.01678
G1 X151.766 Y24.070 E0.18501
G1 X151.231 Y24.070 E0.01678
G1 X155.930 Y28.769 E0.20875
G1 X155.930 Y29.303 E0.01678
G1 X150.697 Y24.070 E0.23249
G1 X150.163 Y24.070 E0.01678
G1 X155.930 Y29.837 E0.25622
M73 P3 R74
G1 X155.930 Y30.372 E0.01678
G1 X149.628 Y24.070 E0.27996
G1 X149.094 Y24.070 E0.01678
G1 X155.930 Y30.906 E0.30370
G1 X155.930 Y31.440 E0.01678
G1 X148.560 Y24.070 E0.32743
G1 X148.026 Y24.070 E0.01678
G1 X155.930 Y31.974 E0.35117
G1 X155.930 Y32.509 E0.01678
G1 X147.491 Y24.070 E0.37491
G1 X146.957 Y24.070 E0.01678
G1 X155.930 Y33.043 E0.39864
G1 X155.930 Y33.577 E0.01678
G1 X146.423 Y24.070 E0.42238
G1 X145.888 Y24.070 E0.01678
G1 X155.930 Y34.112 E0.44612
G1 X155.930 Y34.646 E0.01678
G1 X145.354 Y24.070 E0.46985
G1 X144.820 Y24.070 E0.01678
G1 X155.930 Y35.180 E0.49359
G1 X155.930 Y35.714 E0.01678
G1 X144.286 Y24.070 E0.51733
G1 X143.751 Y24.070 E0.01678
G1 X155.930 Y36.249 E0.54106
G1 X155.930 Y36.783 E0.01678
G1 X143.217 Y24.070 E0.56480
G1 X142.683 Y24.070 E0.01678
G1 X155.930 Y37.317 E0.58854
G1 X155.930 Y37.852 E0.01678
G1 X142.148 Y24.070 E0.61227
G1 X141.614 Y24.070 E0.01678
G1 X148.474 Y30.930 E0.30478
G1 X147.940 Y30.930 E0.01678
G1 X141.080 Y24.070 E0.30478
G1 X140.546 Y24.070 E0.01678
G1 X147.406 Y30.930 E0.30478
G1 X146.871 Y30.930 E0.01678
G1 X140.011 Y24.070 E0.30478
G1 X139.477 Y24.070 E0.01678
G1 X146.337 Y30.930 E0.30478
G1 X145.803 Y30.930 E0.01678
G1 X138.943 Y24.070 E0.30478
G1 X138.408 Y24.070 E0.01678
G1 X145.269 Y30.930 E0.30478
G1 X144.734 Y30.930 E0.01678
G1 X137.874 Y24.070 E0.30478
G1 X137.340 Y24.070 E0.01678
G1 X144.200 Y30.930 E0.30478
G1 X143.666 Y30.930 E0.01678
G1 X136.805 Y24.070 E0.30478
G1 X136.271 Y24.070 E0.01678
G1 X143.131 Y30.930 E0.30478
G1 X142.597 Y30.930 E0.01678
G1 X135.737 Y24.070 E0.30478
G1 X135.203 Y24.070 E0.01678
G1 X142.063 Y30.930 E0.30478
G1 X141.529 Y30.930 E0.01678
G1 X134.668 Y24.070 E0.30478
G1 X134.134 Y24.070 E0.01678
G1 X140.994 Y30.930 E0.30478
G1 X140.460 Y30.930 E0.01678
G1 X133.600 Y24.070 E0.30478
G1 X133.065 Y24.070 E0.01678
G1 X139.926 Y30.930 E0.30478
G1 X139.391 Y30.930 E0.01678
G1 X132.531 Y24.070 E0.30478
G1 X131.997 Y24.070 E0.01678
G1 X138.857 Y30.930 E0.30478
G1 X138.323 Y30.930 E0.01678
G1 X131.463 Y24.070 E0.30478
G1 X130.928 Y24.070 E0.01678
G1 X137.789 Y30.930 E0.30478
G1 X137.254 Y30.930 E0.01678
G1 X130.394 Y24.070 E0.30478
G1 X129.860 Y24.070 E0.01678
G1 X136.720 Y30.930 E0.30478
G1 X136.186 Y30.930 E0.01678
G1 X129.325 Y24.070 E0.30478
G1 X128.791 Y24.070 E0.01678
G1 X135.651 Y30.930 E0.30478
G1 X135.117 Y30.930 E0.01678
G1 X128.257 Y24.070 E0.30478
G1 X127.723 Y24.070 E0.01678
G1 X134.583 Y30.930 E0.30478
G1 X134.048 Y30.930 E0.01678
G1 X127.188 Y24.070 E0.30478
G1 X126.654 Y24.070 E0.01678
G1 X133.514 Y30.930 E0.30478
G1 X132.980 Y30.930 E0.01678
G1 X126.120 Y24.070 E0.30478
G1 X125.585 Y24.070 E0.01678
G1 X132.446 Y30.930 E0.30478
G1 X131.911 Y30.930 E0.01678
G1 X125.051 Y24.070 E0.30478
G1 X124.517 Y24.070 E0.01678
G1 X131.377 Y30.930 E0.30478
G1 X130.843 Y30.930 E0.01678
G1 X123.983 Y24.070 E0.30478
G1 X123.448 Y24.070 E0.01678
G1 X130.308 Y30.930 E0.30478
G1 X129.774 Y30.930 E0.01678
G1 X122.914 Y24.070 E0.30478
G1 X122.380 Y24.070 E0.01678
G1 X129.240 Y30.930 E0.30478
G1 X128.706 Y30.930 E0.01678
G1 X121.845 Y24.070 E0.30478
G1 X121.311 Y24.070 E0.01678
G1 X128.171 Y30.930 E0.30478
G1 X127.637 Y30.930 E0.01678
G1 X120.777 Y24.070 E0.30478
G1 X120.242 Y24.070 E0.01678
G1 X127.103 Y30.930 E0.30478
G1 X126.568 Y30.930 E0.01678
G1 X119.708 Y24.070 E0.30478
G1 X119.174 Y24.070 E0.01678
G1 X126.034 Y30.930 E0.30478
G1 X125.500 Y30.930 E0.01678
G1 X118.640 Y24.070 E0.30478
G1 X118.105 Y24.070 E0.01678
G1 X124.966 Y30.930 E0.30478
G1 X124.431 Y30.930 E0.01678
G1 X117.571 Y24.070 E0.30478
G1 X117.037 Y24.070 E0.01678
G1 X123.897 Y30.930 E0.30478
M73 P4 R74
G1 X123.363 Y30.930 E0.01678
G1 X116.502 Y24.070 E0.30478
G1 X115.968 Y24.070 E0.01678
G1 X122.828 Y30.930 E0.30478
G1 X122.294 Y30.930 E0.01678
G1 X115.434 Y24.070 E0.30478
G1 X114.900 Y24.070 E0.01678
G1 X121.760 Y30.930 E0.30478
G1 X121.226 Y30.930 E0.01678
G1 X114.365 Y24.070 E0.30478
G1 X113.831 Y24.070 E0.01678
G1 X120.691 Y30.930 E0.30478
G1 X120.157 Y30.930 E0.01678
G1 X113.297 Y24.070 E0.30478
G1 X112.762 Y24.070 E0.01678
G1 X119.623 Y30.930 E0.30478
G1 X119.088 Y30.930 E0.01678
G1 X112.228 Y24.070 E0.30478
G1 X111.694 Y24.070 E0.01678
G1 X118.554 Y30.930 E0.30478
G1 X118.020 Y30.930 E0.01678
G1 X111.160 Y24.070 E0.30478
G1 X110.625 Y24.070 E0.01678
G1 X117.485 Y30.930 E0.30478
G1 X116.951 Y30.930 E0.01678
G1 X110.091 Y24.070 E0.30478
G1 X109.557 Y24.070 E0.01678
G1 X116.417 Y30.930 E0.30478
G1 X115.883 Y30.930 E0.01678
G1 X109.022 Y24.070 E0.30478
G1 X108.488 Y24.070 E0.01678
G1 X115.348 Y30.930 E0.30478
G1 X114.814 Y30.930 E0.01678
G1 X107.954 Y24.070 E0.30478
G1 X107.419 Y24.070 E0.01678
G1 X114.280 Y30.930 E0.30478
G1 X113.745 Y30.930 E0.01678
G1 X106.885 Y24.070 E0.30478
G1 X106.351 Y24.070 E0.01678
G1 X113.211 Y30.930 E0.30478
G1 X112.677 Y30.930 E0.01678
G1 X105.817 Y24.070 E0.30478
G1 X105.282 Y24.070 E0.01678
G1 X112.143 Y30.930 E0.30478
G1 X111.608 Y30.930 E0.01678
G1 X104.748 Y24.070 E0.30478
G1 X104.214 Y24.070 E0.01678
G1 X111.074 Y30.930 E0.30478
G1 X110.540 Y30.930 E0.01678
G1 X103.679 Y24.070 E0.30478
G1 X103.145 Y24.070 E0.01678
G1 X110.005 Y30.930 E0.30478
G1 X109.471 Y30.930 E0.01678
G1 X102.611 Y24.070 E0.30478
G1 X102.077 Y24.070 E0.01678
G1 X108.937 Y30.930 E0.30478
G1 X108.403 Y30.930 E0.01678
G1 X101.542 Y24.070 E0.30478
G1 X101.008 Y24.070 E0.01678
G1 X107.868 Y30.930 E0.30478
G1 X107.334 Y30.930 E0.01678
G1 X100.474 Y24.070 E0.30478
G1 X99.939 Y24.070 E0.01678
G1 X106.800 Y30.930 E0.30478
G1 X106.265 Y30.930 E0.01678
G1 X99.405 Y24.070 E0.30478
G1 X98.871 Y24.070 E0.01678
G1 X105.731 Y30.930 E0.30478
G1 X105.197 Y30.930 E0.01678
G1 X98.337 Y24.070 E0.30478
G1 X97.802 Y24.070 E0.01678
G1 X104.662 Y30.930 E0.30478
G1 X104.128 Y30.930 E0.01678
G1 X97.268 Y24.070 E0.30478
G1 X96.734 Y24.070 E0.01678
G1 X103.594 Y30.930 E0.30478
G1 X103.060 Y30.930 E0.01678
G1 X96.199 Y24.070 E0.30478
G1 X95.665 Y24.070 E0.01678
G1 X102.525 Y30.930 E0.30478
G1 X101.991 Y30.930 E0.01678
G1 X95.131 Y24.070 E0.30478
G1 X94.596 Y24.070 E0.01678
G1 X101.457 Y30.930 E0.30478
G1 X100.922 Y30.930 E0.01678
G1 X94.062 Y24.070 E0.30478
G1 X93.528 Y24.070 E0.01678
G1 X100.388 Y30.930 E0.30478
G1 X99.854 Y30.930 E0.01678
G1 X92.994 Y24.070 E0.30478
G1 X92.459 Y24.070 E0.01678
G1 X99.320 Y30.930 E0.30478
M73 P4 R73
G1 X98.785 Y30.930 E0.01678
G1 X91.925 Y24.070 E0.30478
G1 X91.391 Y24.070 E0.01678
G1 X98.251 Y30.930 E0.30478
G1 X97.717 Y30.930 E0.01678
G1 X90.856 Y24.070 E0.30478
G1 X90.322 Y24.070 E0.01678
G1 X97.182 Y30.930 E0.30478
G1 X96.648 Y30.930 E0.01678
G1 X89.788 Y24.070 E0.30478
G1 X89.254 Y24.070 E0.01678
G1 X96.114 Y30.930 E0.30478
G1 X95.580 Y30.930 E0.01678
G1 X88.719 Y24.070 E0.30478
G1 X88.185 Y24.070 E0.01678
G1 X95.045 Y30.930 E0.30478
G1 X94.511 Y30.930 E0.01678
G1 X87.651 Y24.070 E0.30478
G1 X87.116 Y24.070 E0.01678
G1 X93.977 Y30.930 E0.30478
G1 X93.442 Y30.930 E0.01678
G1 X86.582 Y24.070 E0.30478
G1 X86.048 Y24.070 E0.01678
G1 X92.908 Y30.930 E0.30478
G1 X92.374 Y30.930 E0.01678
G1 X85.514 Y24.070 E0.30478
G1 X84.979 Y24.070 E0.01678
G1 X91.839 Y30.930 E0.30478
G1 X91.305 Y30.930 E0.01678
G1 X84.445 Y24.070 E0.30478
G1 X83.911 Y24.070 E0.01678
G1 X90.771 Y30.930 E0.30478
G1 X90.237 Y30.930 E0.01678
G1 X83.376 Y24.070 E0.30478
G1 X82.842 Y24.070 E0.01678
G1 X89.702 Y30.930 E0.30478
G1 X89.168 Y30.930 E0.01678
G1 X82.308 Y24.070 E0.30478
G1 X81.773 Y24.070 E0.01678
G1 X88.634 Y30.930 E0.30478
G1 X88.099 Y30.930 E0.01678
G1 X81.239 Y24.070 E0.30478
G1 X80.705 Y24.070 E0.01678
G1 X87.565 Y30.930 E0.30478
G1 X87.031 Y30.930 E0.01678
G1 X80.171 Y24.070 E0.30478
G1 X79.636 Y24.070 E0.01678
G1 X86.497 Y30.930 E0.30478
G1 X85.962 Y30.930 E0.01678
G1 X79.102 Y24.070 E0.30478
G1 X78.568 Y24.070 E0.01678
G1 X85.428 Y30.930 E0.30478
G1 X84.894 Y30.930 E0.01678
G1 X78.033 Y24.070 E0.30478
G1 X77.499 Y24.070 E0.01678
G1 X84.359 Y30.930 E0.30478
G1 X83.825 Y30.930 E0.01678
G1 X76.965 Y24.070 E0.30478
G1 X76.431 Y24.070 E0.01678
G1 X83.291 Y30.930 E0.30478
G1 X82.757 Y30.930 E0.01678
G1 X75.896 Y24.070 E0.30478
G1 X75.362 Y24.070 E0.01678
G1 X82.222 Y30.930 E0.30478
G1 X81.688 Y30.930 E0.01678
G1 X74.828 Y24.070 E0.30478
G1 X74.293 Y24.070 E0.01678
G1 X81.154 Y30.930 E0.30478
G1 X80.619 Y30.930 E0.01678
G1 X73.759 Y24.070 E0.30478
G1 X73.225 Y24.070 E0.01678
G1 X80.085 Y30.930 E0.30478
G1 X79.551 Y30.930 E0.01678
G1 X72.691 Y24.070 E0.30478
G1 X72.156 Y24.070 E0.01678
G1 X79.016 Y30.930 E0.30478
G1 X78.482 Y30.930 E0.01678
G1 X71.622 Y24.070 E0.30478
G1 X71.088 Y24.070 E0.01678
G1 X77.948 Y30.930 E0.30478
G1 X77.414 Y30.930 E0.01678
G1 X70.553 Y24.070 E0.30478
G1 X70.019 Y24.070 E0.01678
G1 X76.879 Y30.930 E0.30478
M73 P5 R73
G1 X76.345 Y30.930 E0.01678
G1 X69.485 Y24.070 E0.30478
G1 X68.951 Y24.070 E0.01678
G1 X75.811 Y30.930 E0.30478
G1 X75.276 Y30.930 E0.01678
G1 X68.416 Y24.070 E0.30478
G1 X67.882 Y24.070 E0.01678
G1 X74.742 Y30.930 E0.30478
G1 X74.208 Y30.930 E0.01678
G1 X67.348 Y24.070 E0.30478
G1 X66.813 Y24.070 E0.01678
G1 X73.674 Y30.930 E0.30478
G1 X73.139 Y30.930 E0.01678
G1 X66.279 Y24.070 E0.30478
G1 X65.745 Y24.070 E0.01678
G1 X72.605 Y30.930 E0.30478
G1 X72.071 Y30.930 E0.01678
G1 X65.210 Y24.070 E0.30478
G1 X64.676 Y24.070 E0.01678
G1 X71.536 Y30.930 E0.30478
G1 X71.002 Y30.930 E0.01678
G1 X64.142 Y24.070 E0.30478
G1 X63.608 Y24.070 E0.01678
G1 X70.468 Y30.930 E0.30478
G1 X69.934 Y30.930 E0.01678
G1 X63.073 Y24.070 E0.30478
G1 X62.539 Y24.070 E0.01678
G1 X69.399 Y30.930 E0.30478
G1 X68.865 Y30.930 E0.01678
G1 X62.005 Y24.070 E0.30478
G1 X61.470 Y24.070 E0.01678
G1 X68.331 Y30.930 E0.30478
G1 X67.796 Y30.930 E0.01678
G1 X60.936 Y24.070 E0.30478
G1 X60.402 Y24.070 E0.01678
G1 X67.262 Y30.930 E0.30478
G1 X66.728 Y30.930 E0.01678
G1 X59.868 Y24.070 E0.30478
G1 X59.333 Y24.070 E0.01678
G1 X66.194 Y30.930 E0.30478
G1 X65.659 Y30.930 E0.01678
G1 X58.799 Y24.070 E0.30478
G1 X58.265 Y24.070 E0.01678
G1 X65.125 Y30.930 E0.30478
G1 X64.591 Y30.930 E0.01678
G1 X57.730 Y24.070 E0.30478
G1 X57.196 Y24.070 E0.01678
G1 X64.056 Y30.930 E0.30478
G1 X63.522 Y30.930 E0.01678
G1 X56.662 Y24.070 E0.30478
G1 X56.128 Y24.070 E0.01678
G1 X62.988 Y30.930 E0.30478
G1 X62.453 Y30.930 E0.01678
G1 X55.593 Y24.070 E0.30478
G1 X55.059 Y24.070 E0.01678
G1 X61.919 Y30.930 E0.30478
G1 X61.385 Y30.930 E0.01678
G1 X54.525 Y24.070 E0.30478
G1 X53.990 Y24.070 E0.01678
G1 X60.851 Y30.930 E0.30478
G1 X60.316 Y30.930 E0.01678
G1 X53.456 Y24.070 E0.30478
G1 X52.922 Y24.070 E0.01678
G1 X59.782 Y30.930 E0.30478
G1 X59.248 Y30.930 E0.01678
G1 X52.387 Y24.070 E0.30478
G1 X51.853 Y24.070 E0.01678
G1 X58.713 Y30.930 E0.30478
G1 X58.179 Y30.930 E0.01678
G1 X51.319 Y24.070 E0.30478
G1 X50.785 Y24.070 E0.01678
G1 X57.645 Y30.930 E0.30478
G1 X57.111 Y30.930 E0.01678
G1 X50.250 Y24.070 E0.30478
G1 X49.716 Y24.070 E0.01678
G1 X56.576 Y30.930 E0.30478
G1 X56.042 Y30.930 E0.01678
G1 X49.182 Y24.070 E0.30478
G1 X48.647 Y24.070 E0.01678
G1 X55.508 Y30.930 E0.30478
G1 X54.973 Y30.930 E0.01678
G1 X48.113 Y24.070 E0.30478
G1 X47.579 Y24.070 E0.01678
G1 X54.439 Y30.930 E0.30478
G1 X53.905 Y30.930 E0.01678
G1 X47.045 Y24.070 E0.30478
G1 X46.510 Y24.070 E0.01678
G1 X53.371 Y30.930 E0.30478
G1 X52.836 Y30.930 E0.01678
G1 X45.976 Y24.070 E0.30478
G1 X45.442 Y24.070 E0.01678
G1 X52.302 Y30.930 E0.30478
G1 X51.768 Y30.930 E0.01678
G1 X44.907 Y24.070 E0.30478
G1 X44.373 Y24.070 E0.01678
G1 X51.233 Y30.930 E0.30478
G1 X50.699 Y30.930 E0.01678
G1 X43.839 Y24.070 E0.30478
G1 X43.305 Y24.070 E0.01678
G1 X50.165 Y30.930 E0.30478
G1 X49.630 Y30.930 E0.01678
G1 X42.770 Y24.070 E0.30478
G1 X42.236 Y24.070 E0.01678
G1 X49.096 Y30.930 E0.30478
G1 X48.562 Y30.930 E0.01678
G1 X41.702 Y24.070 E0.30478
G1 X41.167 Y24.070 E0.01678
G1 X48.028 Y30.930 E0.30478
